!!!!SEGMENT: s-uu--vok-mus-i-hs-22-1_forster-kaspar--dulcis-amor-jesu.krn
!!!cenid: 16xx:1704
!!!COM: Förster, Kaspar
!!!COM-rismID: pe30006147
!!!CDT: ~1616-1673/02/02
!!!CNT: German
!!!OTL: Dulcis amor Jesu
!!!PDT: 1665
!!!AGN:
!!!YEC: Copyright 2022 Narodowy Instytut Fryderyka Chopina (https://polishscores.org)
!!!YEM: License CC-BY-4.0 (https://creativecommons.org/licenses/by/4.0)
!!!SMS-siglum: S-Uu
!!!SMS-shelfmark: Vok. mus. i hs. 22:1
!!!SMS-shelfwork: W
!!!SMS-variant:
!!!SMS-altvar:
!!!NIFC-rismSourceID: 190008715
!!!NIFC-rismChildID: 190008715
!!!NIFC-islandoraID: none
!!!URL-pdf-islandora:
!!!URL-scan: https://www2.musik.uu.se/duben/presentationSource1.php?Select_Dnr=824 @EN{Scan on Academica} @PL{Skany w zewnętrznej bibliotece cyfrowej}
!!!IIIF:
!!!ONB-nifc: UWAGA: poszczególne partie dostępne po kliknięciu w „browse part”. Informacje nt stron tytułowych w opisie na stronie lub na RISM.
!!!AIN: 2 soprn 2 violn
!!!key: g
!!!OMD:
!!!OMD-mod: Allegro
**kern	**fba	**kern	**dynam	**kern	**kern	**text	**mod-text	**kern	**text	**mod-text
*group3	*	*group2	*	*group2	*group1	*	*	*group1	*	*
*part5	*	*part4	*	*part3	*part2	*	*	*part1	*	*
*staff5	*	*staff4	*	*staff3	*staff2	*	*	*staff1	*	*
*I"Baſſo Continuo.	*	*I"Violino 2do.	*	*I"Violino 1mo.	*I"Canto 2do	*	*	*I"Canto 1mo.	*	*
*mI"Basso continuo	*	*mI"Violino II	*	*mI"Violino I	*mI"Soprano II	*	*	*mI"Soprano I	*	*
*I'bc	*	*I'vl 2	*	*I'vl 1	*I'S 2	*	*	*I'S 1	*	*
*I	*	*Ivioln	*	*Ivioln	*Isoprn	*	*	*Isoprn	*	*
*ICstr|ICklav	*	*ICstr	*	*ICstr	*ICvox	*	*	*ICvox	*	*
*IGcont	*	*	*	*	*	*	*	*	*	*
*clefF4	*	*clefG2	*	*clefG2	*clefC1	*	*	*clefC1	*	*
*	*	*	*	*	*mclefG2	*	*	*mclefG2	*	*
*k[b-]	*	*k[b-]	*	*k[b-]	*k[b-]	*	*	*k[b-]	*	*
*g:	*	*g:	*	*g:	*g:	*	*	*g:	*	*
*M2/2	*	*M2/2	*	*M2/2	*M2/2	*	*	*M2/2	*	*
*met(C|)	*	*met(C|)	*	*met(C|)	*met(C|)	*	*	*met(C|)	*	*
*mmet(c|)	*	*mmet(c|)	*	*mmet(c|)	*mmet(c|)	*	*	*mmet(c|)	*	*
=1-	=1-	=1-	=1-	=1-	=1-	=1-	=1-	=1-	=1-	=1-
!	!	!LO:TX:t=A 4.:mod=	!	!LO:TX:t=A 4:mod=	!LO:TX:t=A 4.:mod=	!	!	!LO:TX:t=A 4.:mod=	!	!
!	!	!	!	!	!LO:TX:b:t=10.:mod=	!	!	!LO:TX:b:t=10.:mod=	!	!
1G	#	4r	.	4r	00r	.	.	00r	.	.
!	!	!LO:TX:t=P:problem:# przed 4r	!	!	!	!	!	!	!	!
!	!	!LO:N:acc=#	!	!	!	!	!	!	!	!
.	.	2bn/	.	2dd\	.	.	.	.	.	.
!	!	!LO:TX:t=P:problem:kreska pseudotaktowa	!	!	!	!	!	!	!	!
!	!	!LO:N:acc=#	!	!LO:TX:t=P:problem:kreska pseudotaktowa	!	!	!	!	!	!
!	!	!LO:SIC:s=4b	!	!	!	!	!	!	!	!
.	.	4bn/	.	4dd\	.	.	.	.	.	.
=2-	=2-	=2-	=2-	=2-	=2-	=2-	=2-	=2-	=2-	=2-
!	!	!LO:N:acc=#	!	!	!	!	!	!	!	!
2G\	.	4.bn/	.	4.dd\	.	.	.	.	.	.
.	.	8b/	.	8dd\	.	.	.	.	.	.
!LO:TX:t=P:problem:kreska pseudotaktowa	!	!	!	!	!	!	!	!	!	!
2C/	-	8cc\L	.	8ee-X\L	.	.	.	.	.	.
!	!	!LO:SIC:v:s=8ee-\	!	!	!	!	!	!	!	!
.	.	8ee\	.	8gg\	.	.	.	.	.	.
.	.	8dd\	.	8ff\	.	.	.	.	.	.
!	!	!LO:TX:t=P:problem:kreska pseudotaktowa	!	!LO:TX:t=P:problem:kreska pseudotaktowa	!	!	!	!	!	!
.	.	8cc\J	.	8ee-X\J	.	.	.	.	.	.
=3-	=3-	=3-	=3-	=3-	=3-	=3-	=3-	=3-	=3-	=3-
!	!	!LO:N:acc=#	!	!	!	!	!	!	!	!
2GG/	#	2bn/	.	2dd\	.	.	.	.	.	.
2G\	5	4r	.	4r	.	.	.	.	.	.
!	!	!LO:N:acc=#	!	!	!	!	!	!	!	!
!	!	!LO:SIC:s=8bL	!	!	!	!	!	!	!	!
.	7	8bn\L	.	8dd\L	.	.	.	.	.	.
!	!	!LO:TX:t=P:problem:kreska pseudotaktowa	!	!LO:TX:t=P:problem:kreska pseudotaktowa	!	!	!	!	!	!
.	.	8dd\J	.	8ff\J	.	.	.	.	.	.
=4-	=4-	=4-	=4-	=4-	=4-	=4-	=4-	=4-	=4-	=4-
2C/	.	8cc\L	.	8ee-X\L	.	.	.	.	.	.
.	.	8cc\	.	8ee-\	.	.	.	.	.	.
.	.	8cc\	.	8ee-\	.	.	.	.	.	.
.	.	8b\J	.	8dd\J	.	.	.	.	.	.
4F\	.	8a/L	.	8cc\L	.	.	.	.	.	.
!	!	!LO:SIC:s=8a	!	!	!	!	!	!	!	!
.	.	8a/J	.	8cc\	.	.	.	.	.	.
!LO:TX:t=P:problem:kreska pseudotaktowa	!	!	!	!	!	!	!	!	!	!
!	!	!LO:SIC:s=8dd	!	!	!	!	!	!	!	!
4D\	6	8dd\L	.	8ff\	.	.	.	.	.	.
!	!	!LO:TX:t=P:problem:kreska pseudotaktowa	!	!LO:TX:t=P:problem:kreska pseudotaktowa	!	!	!	!	!	!
.	.	8dd\J	.	8ff\J	.	.	.	.	.	.
=5-	=5-	=5-	=5-	=5-	=5-	=5-	=5-	=5-	=5-	=5-
2E-X\	.	4cc\	.	4ee-X\	00r	.	.	00r	.	.
.	.	8b-/L	.	8ee-\L	.	.	.	.	.	.
.	.	8b-/J	.	8dd\J	.	.	.	.	.	.
2F\	4	4.b-/	.	4.cc\	.	.	.	.	.	.
!	!	!LO:TX:t=P:problem:kreska pseudotaktowa	!	!LO:TX:t=P:problem:kreska pseudotaktowa	!	!	!	!	!	!
.	3	8a/	.	8cc\	.	.	.	.	.	.
*	*	*custos:b	*	*	*	*	*	*	*	*
!	!	!LO:LB:g=original	!	!	!	!	!	!	!	!
=6-	=6-	=6-	=6-	=6-	=6-	=6-	=6-	=6-	=6-	=6-
2BB-/	.	4b-/	.	4dd\	.	.	.	.	.	.
.	.	8b-/L	.	8dd\L	.	.	.	.	.	.
.	.	8cc/J	.	8ee-\J	.	.	.	.	.	.
!LO:TX:t=P:problem:kreska pseudotaktowa	!	!	!	!	!	!	!	!	!	!
2B-\	.	8dd\L	.	8ff\L	.	.	.	.	.	.
.	.	8cc\	.	8ee-\	.	.	.	.	.	.
.	.	8dd\	.	8ff\	.	.	.	.	.	.
!	!	!	!	!LO:TX:t=P:problem:kreska pseudotaktowa	!	!	!	!	!	!
!	!	!LO:TX:t=P:problem:kreska pseudotaktowa	!	!	!	!	!	!	!	!
.	.	8ee\J	.	8gg\J	.	.	.	.	.	.
*	*	*	*	*custos:aa	*	*	*	*	*	*
!	!	!	!	!LO:LB:g=original	!	!	!	!	!	!
=7-	=7-	=7-	=7-	=7-	=7-	=7-	=7-	=7-	=7-	=7-
1F	.	8ff\L	.	8aa\L	.	.	.	.	.	.
.	.	8ee\	.	8gg\	.	.	.	.	.	.
.	.	8ff\	.	8aa\	.	.	.	.	.	.
.	.	8gg\J	.	8bb-\J	.	.	.	.	.	.
.	.	8aa\L	.	8ccc\L	.	.	.	.	.	.
.	.	8gg\	.	8bb-X\	.	.	.	.	.	.
.	.	8ff\	.	8aa\	.	.	.	.	.	.
!	!	!LO:TX:t=P:problem:kreska pseudotaktowa	!	!LO:TX:t=P:problem:kreska pseudotaktowa	!	!	!	!	!	!
.	.	8gg\J	.	8bb-X\J	.	.	.	.	.	.
=8-	=8-	=8-	=8-	=8-	=8-	=8-	=8-	=8-	=8-	=8-
2C/	.	8ee\L	.	8gg\L	.	.	.	.	.	.
.	.	8dd\	.	8ff\	.	.	.	.	.	.
.	.	8ee\	.	8gg\	.	.	.	.	.	.
.	.	8ff\J	.	8aa\J	.	.	.	.	.	.
2G\	.	8gg\L	.	4.bb-X\	.	.	.	.	.	.
.	.	16ff\L	.	.	.	.	.	.	.	.
.	.	16ee\JJ	.	.	.	.	.	.	.	.
.	.	8dd\L	.	.	.	.	.	.	.	.
!	!	!LO:TX:t=P:problem:kreska pseudotaktowa	!	!LO:TX:t=P:problem:kreska pseudotaktowa	!	!	!	!	!	!
.	.	8ee\J	.	8bb-\	.	.	.	.	.	.
=9-	=9-	=9-	=9-	=9-	=9-	=9-	=9-	=9-	=9-	=9-
4D/	.	8ff#X\L	.	8aa\L	0r	.	.	0r	.	.
.	.	8dd\J	.	8ff#X\J	.	.	.	.	.	.
4BB-/	.	8gg\L	.	4bb-X\	.	.	.	.	.	.
.	.	8ff#\	.	.	.	.	.	.	.	.
4C/	.	8ee\	.	4.aa\	.	.	.	.	.	.
.	.	8ff#\J	.	.	.	.	.	.	.	.
!	!	!LO:TX:t=P:problem:kreska pseudotaktowa	!	!	!	!	!	!	!	!
4C#X/	5	4gg\	.	.	.	.	.	.	.	.
!	!	!	!	!LO:TX:t=P:problem:kreska pseudotaktowa	!	!	!	!	!	!
.	6	.	.	8aa\	.	.	.	.	.	.
=10-	=10-	=10-	=10-	=10-	=10-	=10-	=10-	=10-	=10-	=10-
2D/	.	4.gg\	.	2aa\	.	.	.	.	.	.
.	.	8ff#X\	.	.	.	.	.	.	.	.
!LO:TX:t=P:problem:kreska pseudotaktowa	!	!	!	!	!	!	!	!	!	!
2GG/	#	2gg\	.	2gg\	.	.	.	.	.	.
*custos:G	*	*	*	*	*	*	*	*	*	*
!LO:LB:g=original	!	!	!	!	!	!	!	!	!	!
=11-	=11-	=11-	=11-	=11-	=11-	=11-	=11-	=11-	=11-	=11-
!	!	!LO:TX:b:t=5.:mod=	!	!LO:TX:b:t=5.:mod=	!	!	!	!	!	!
1G	.	00r	.	00r	4r	.	.	4r	.	.
!	!	!	!	!	!LO:N:acc=#	!	!	!	!	!
.	.	.	.	.	2bn\	Dǔl-	Dul-	2dd\	Dǔl-	Dul-
!	!	!	!	!	!LO:TX:t=P:problem:kreska pseudotaktowa	!	!	!	!	!
!	!	!	!	!	!LO:N:acc=#	!	!	!	!	!
.	.	.	.	.	4bn\	-cis	-cis	4dd\	-cis	-cis
=12-	=12-	=12-	=12-	=12-	=12-	=12-	=12-	=12-	=12-	=12-
!	!	!	!	!	!LO:N:acc=#	!	!	!	!	!
2G\	.	.	.	.	4.bn\	a-	a-	4.dd\	a-	a-
!	!	!	!	!	!LO:N:acc=#	!	!	!	!	!
.	.	.	.	.	8bn\	-mor	-mor	8dd\	-mor	-mor
!	!	!	!	!	!LO:TX:t=P:problem:kreska pseudotaktowa	!	!	!	!	!
2Cny/	-	.	.	.	2cc\	Je-	Je-	2ee-X\	Je-	Je-
=13-	=13-	=13-	=13-	=13-	=13-	=13-	=13-	=13-	=13-	=13-
!	!	!	!	!	!LO:N:acc=#	!	!	!	!	!
2GG/	#	.	.	.	2bn\	-sǔ,	-su,	2dd\	-sǔ	-su
!	!	!	!	!	!LO:TX:t=P:problem:kreska pseudotaktowa	!	!	!	!	!
2G\	7	.	.	.	2r	.	.	4r	.	.
.	.	.	.	.	.	.	.	8dd\	dǔl-	dul-
.	.	.	.	.	.	.	.	8ff\	-ce	-ce
=14-	=14-	=14-	=14-	=14-	=14-	=14-	=14-	=14-	=14-	=14-
2C/	-	.	.	.	4r	.	.	8ee-X\	bo-	bo-
.	.	.	.	.	.	.	.	8ee-\	-nǔm,	-num,
.	7	.	.	.	8g\	dul-	dul-	4r	.	.
.	.	.	.	.	8b-y\	-ce	-ce	.	.	.
4F\	.	.	.	.	8a\	bo-	bo-	4r	.	.
.	.	.	.	.	8a\	-nǔm	-num	.	.	.
*	*	*	*	*	*	*ij	*ij	*	*	*
!LO:TX:t=P:problem:kreska pseudotaktowa	!	!	!	!	!	!	!	!	!	!
4FF/	.	.	.	.	8a\	dul-	dul-	8cc\	dul-	dul-
!	!	!	!	!	!LO:TX:t=P:problem:kreska pseudotaktowa	!	!	!	!	!
.	.	.	.	.	8a\	-ce	-ce	8cc\	-ce	-ce
*	*	*	*	*	*	*	*	*custos:b	*	*
!	!	!	!	!	!	!	!	!LO:LB:g=original	!	!
=15-	=15-	=15-	=15-	=15-	=15-	=15-	=15-	=15-	=15-	=15-
4.GG/	9	1r	.	1r	8a\	bo-	bo-	8b-\	bo-	bo-
.	8	.	.	.	8g/	-nǔm	-num	8b-\	-nǔm	-num
*	*	*	*	*	*	*Xij	*Xij	*	*ij	*ij
.	.	.	.	.	8g/	dǔl-	dul-	8b-\	dul-	dul-
!	!	!	!	!	!LO:TX:t=P:problem:wykreślone 8g/	!	!	!	!	!
8GG/	.	.	.	.	8g/	-ce	-ce	8b-\	-ce	-ce
*	*	*	*	*	*custos:g	*	*	*	*	*
!	!	!	!	!	!LO:LB:g=original	!	!	!	!	!
4AA/	7	.	.	.	8g/	bo-	bo-	8a\	bo-	bo-
.	6	.	.	.	8f/	-num	-num	8a\	-nǔm	-num
*	*	*	*	*	*	*	*	*	*Xij	*Xij
4BB-/	.	.	.	.	8r	.	.	8r	.	.
!	!	!	!	!	!LO:TX:t=P:problem:kreska pseudotaktowa	!	!	!	!	!
.	.	.	.	.	8f/	di-	di-	8dd\	di-	di-
=16-	=16-	=16-	=16-	=16-	=16-	=16-	=16-	=16-	=16-	=16-
2C/	4	2r	.	2r	4.f/	-lec-	-lec-	4.g/	-lec-	-lec-
.	3	.	.	.	8e/	-te	-te	8a\	-te	-te
!LO:TX:t=P:problem:kreska pseudotaktowa	!	!	!	!	!	!	!	!	!	!
2FF/	.	4r	.	4r	4f/	mi	mi	4f/	mi	mi
.	.	8aa\L	.	8ccc\L	4r	.	.	4r	.	.
!	!	!LO:TX:t=P:problem:kreska pseudotaktowa	!	!LO:TX:t=P:problem:kreska pseudotaktowa	!	!	!	!	!	!
.	.	8aa\J	.	8ccc\J	.	.	.	.	.	.
*	*	*custos:aa	*	*	*	*	*	*	*	*
!	!	!LO:LB:g=original	!	!	!	!	!	!	!	!
=17-	=17-	=17-	=17-	=17-	=17-	=17-	=17-	=17-	=17-	=17-
4.GG/	9	8aa\L	.	8bb-X\L	1r	.	.	1r	.	.
.	8	8gg\	.	8bb-\	.	.	.	.	.	.
.	.	8gg\	.	8bb-\	.	.	.	.	.	.
8GG/	.	8gg\J	.	8bb-\J	.	.	.	.	.	.
4AA/	7	8gg\L	.	8aa\L	.	.	.	.	.	.
.	6	8ffny\J	.	8aa\J	.	.	.	.	.	.
4BB-/	.	8r	.	8r	.	.	.	.	.	.
!	!	!LO:TX:t=P:problem:kreska pseudotaktowa	!	!LO:TX:t=P:problem:kreska pseudotaktowa	!	!	!	!	!	!
.	.	8ff\	.	8aa\	.	.	.	.	.	.
=18-	=18-	=18-	=18-	=18-	=18-	=18-	=18-	=18-	=18-	=18-
2C/	.	4.ff\	.	4.gg\	2r	.	.	2r	.	.
.	.	8ee\	.	8gg\	.	.	.	.	.	.
!LO:TX:t=P:problem:kreska pseudotaktowa	!	!	!	!	!	!	!	!	!	!
2FF/	.	4ff\	.	4ffny\	4r	.	.	4r	.	.
!	!	!LO:TX:t=P:problem:kreska pseudotaktowa	!	!LO:TX:t=P:problem:kreska pseudotaktowa	!	!	!	!	!	!
.	.	4r	.	4r	8a\	dul-	dul-	8cc\	dul-	dul-
!	!	!	!	!	!LO:TX:t=P:problem:kreska pseudotaktowa	!	!	!LO:TX:t=P:problem:kreska pseudotaktowa	!	!
.	.	.	.	.	8b-\	-cis	-cis	8dd\	-cis	-cis
*	*	*	*	*custos:gg	*	*	*	*	*	*
!	!	!	!	!LO:LB:g=original	!	!	!	!	!	!
=19-	=19-	=19-	=19-	=19-	=19-	=19-	=19-	=19-	=19-	=19-
2C/	-	4r	.	4r	8cc\	a-	a-	8ee-X\	a-	a-
.	.	.	.	.	8cc\	-mor	-mor	8ee-\	-mor	-mor
.	.	8ee-X\L	.	8gg\L	4r	.	.	4r	.	.
.	.	8ff\J	.	8aa\J	.	.	.	.	.	.
2GG/	.	8gg\L	.	8bb-X\L	4r	.	.	4r	.	.
.	.	8gg\J	.	8bb-\J	.	.	.	.	.	.
.	.	4r	.	4r	8b-\	a-	a-	8dd\	a-	a-
!	!	!	!	!	!LO:TX:t=P:problem:kreska pseudotaktowa	!	!	!LO:TX:t=P:problem:kreska pseudotaktowa	!	!
.	.	.	.	.	8cc\	-mor	-mor	8ee-X\	-mor	-mor
*	*	*	*	*	*	*	*	*custos:ff	*	*
!	!	!	!	!	!	!	!	!LO:LB:g=original	!	!
=20-	=20-	=20-	=20-	=20-	=20-	=20-	=20-	=20-	=20-	=20-
!	!	!LO:TX:b:t=2.:mod=	!	!	!	!	!	!	!	!
2D/	-	0r	.	0r	8dd\	Je-	Je-	8ff\	Je-	Je-
.	.	.	.	.	8dd\	-ſǔ	-ſu	8ff\	-sǔ	-su
.	.	.	.	.	8dd\	dǔl-	dul-	8ff\	dǔl-	dul-
.	.	.	.	.	8dd\	-ce	-ce	8ff\	-ce	-ce
4E-X\	7	.	.	.	8dd\	bo-	bo-	8ee-X\	bo-	bo-
.	6	.	.	.	8cc\	-nǔm	-num	8ee-\	-nǔm	-num
!LO:TX:t=P:problem:kreska pseudotaktowa	!	!	!	!	!	!	!	!	!	!
4F\	.	.	.	.	8cc\	dǔl-	dul-	8ee-\	dul-	dul-
!	!	!	!	!	!LO:TX:t=P:problem:kreska pseudotaktowa	!	!	!	!	!
.	.	.	.	.	8cc\	-ce	-ce	8ee-\	-ce	-ce
*	*	*	*	*	*custos:cc	*	*	*	*	*
!	!	!	!	!	!LO:LB:g=original	!	!	!	!	!
=21-	=21-	=21-	=21-	=21-	=21-	=21-	=21-	=21-	=21-	=21-
4G\	.	.	.	.	8cc\	bo-	bo-	8dd\	bo-	bo-
.	.	.	.	.	8b-\	-nǔm	-num	8dd\	-nǔm	-num
4E-X\	7	.	.	.	8r	.	.	8r	.	.
.	5	.	.	.	8b-\	di-	di-	8dd\	di-	di-
!LO:TX:t=P:problem:kreska pseudotaktowa	!	!	!	!	!	!	!	!	!	!
2F\	4	.	.	.	4.b-\	-lec-	-lec-	4.cc\	-lec-	-lec-
!	!	!	!	!	!LO:TX:t=P:problem:kreska pseudotaktowa	!	!	!	!	!
.	3	.	.	.	8a\	-te	-te	8dd\	-te	-te
*custos:BB	*	*	*	*	*	*	*	*	*	*
!LO:LB:g=original	!	!	!	!	!	!	!	!	!	!
=22-	=22-	=22-	=22-	=22-	=22-	=22-	=22-	=22-	=22-	=22-
4.BB-/	.	4r	.	4r	4b-\	mi	mi,	4b-\	mi,	mi,
.	.	8dd\L	.	8ff\L	4r	.	.	4r	.	.
8D/	.	8dd\J	.	8ff\J	.	.	.	.	.	.
4E-X\	.	8dd\L	.	8ee-X\L	2r	.	.	2r	.	.
.	.	8cc\	.	8ee-\	.	.	.	.	.	.
!LO:TX:t=P:problem:kreska pseudotaktowa	!	!	!	!	!	!	!	!	!	!
4F\	7	8cc\	.	8ee-\	.	.	.	.	.	.
!	!	!LO:TX:t=P:problem:kreska pseudotaktowa	!	!LO:TX:t=P:problem:kreska pseudotaktowa	!	!	!	!	!	!
.	6	8cc\J	.	8ee-\J	.	.	.	.	.	.
=23-	=23-	=23-	=23-	=23-	=23-	=23-	=23-	=23-	=23-	=23-
4G\	.	8cc\L	.	8dd\L	1r	.	.	1r	.	.
.	.	8b-\J	.	8dd\J	.	.	.	.	.	.
4E-X\	7	8r	.	8r	.	.	.	.	.	.
.	5	8b-/	.	8dd\	.	.	.	.	.	.
2F\	.	4.b-/	.	4.cc\	.	.	.	.	.	.
!	!	!LO:TX:t=P:problem:kreska pseudotaktowa	!	!LO:TX:t=P:problem:kreska pseudotaktowa	!	!	!	!	!	!
.	.	8a/	.	8cc\	.	.	.	.	.	.
=24-	=24-	=24-	=24-	=24-	=24-	=24-	=24-	=24-	=24-	=24-
2BB-/	.	4b-/	.	4dd\	2r	.	.	2r	.	.
.	.	8dd\L	.	8ff\L	.	.	.	.	.	.
.	.	8eeny\J	.	8gg\J	.	.	.	.	.	.
*	*	*custos:ff	*	*	*	*	*	*	*	*
!LO:TX:t=P:problem:kreska pseudotaktowa	!	!LO:LB:g=original	!	!	!	!	!	!	!	!
2FF/	.	8ff\L	.	8aa\L	4r	.	.	4r	.	.
.	.	8ee\J	.	8gg\J	.	.	.	.	.	.
.	.	16ff\LL	.	16aa\LL	8a\	dǔl-	dul-	8cc\	dul-	dul-
.	.	16ee\	.	16gg\	.	.	.	.	.	.
!	!	!	!	!	!LO:TX:t=P:problem:kreska pseudotaktowa	!	!	!LO:TX:t=P:problem:kreska pseudotaktowa	!	!
.	.	16dd\	.	16ff\	8b-\	-ce	-ce	8dd\	-ce	-ce
!	!	!LO:TX:t=P:problem:kreska pseudotaktowa	!	!LO:TX:t=P:problem:kreska pseudotaktowa	!	!	!	!	!	!
.	.	16ff\JJ	.	16aa\JJ	.	.	.	.	.	.
=25-	=25-	=25-	=25-	=25-	=25-	=25-	=25-	=25-	=25-	=25-
2C/	-	4ee-X\	.	4.gg\	8cc\L	bo-	bo-	8ee-X\L	bo-	bo-
.	.	.	.	.	8b-\J	.	.	8dd\J	.	.
.	.	8g/L	.	.	16cc\LL	.	.	16ee-\LL	.	.
.	.	.	.	.	16b-\	.	.	16dd\	.	.
.	.	8a/J	.	8gg\	16a\	.	.	16cc\	.	.
.	.	.	.	.	16cc\JJ	.	.	16ee-X\JJ	.	.
*	*	*	*	*	*	*	*	*custos:dd	*	*
!	!	!	!	!	!	!	!	!LO:LB:g=original	!	!
4GG/	.	4b-\	.	4gg\	8b-\	.	.	8dd\	.	.
.	.	.	.	.	8b-\	-num	-num	8dd\	-num,	-num,
!LO:TX:t=P:problem:kreska pseudotaktowa	!	!LO:TX:t=P:problem:kreska pseudotaktowa	!	!LO:TX:t=P:problem:kreska pseudotaktowa	!	!	!	!	!	!
4AA/	.	4cc\	.	4r	8a\	dul-	dul-	8cc\	dǔl-	dul-
!	!	!	!	!	!LO:TX:t=P:problem:kreska pseudotaktowa	!	!	!LO:TX:t=P:problem:kreska pseudotaktowa	!	!
.	.	.	.	.	8a\	-ce	-ce	8cc\	-ce	-ce
*	*	*	*	*custos:aa	*	*	*	*	*	*
!	!	!	!	!LO:LB:g=original	!	!	!	!	!	!
=26-	=26-	=26-	=26-	=26-	=26-	=26-	=26-	=26-	=26-	=26-
4BB-/	.	4dd\	.	2r	8a\	bo-	bo-	8b-\	bo-	bo-
.	.	.	.	.	8g/	-nu(m)	-num	8b-\	-nǔm	-num
*	*	*	*	*	*	*	*	*	*ij	*ij
4C/	.	4ee-\	.	.	8g/	dul-	dul-	8b-\	dǔl-	dul-
.	.	.	.	.	8g/	-ce	-ce	8b-\	-ce	-ce
4D/	.	4ff\	.	4aa\	(8g/L	bo-	bo-	4a\	bo-	bo-
.	.	.	.	.	8f/J)	.	.	.	.	.
!	!	!LO:TX:t=P:problem:kreska pseudotaktowa nad półnutą (?)	!	!	!	!	!	!	!	!
4BB-/	.	2ff\	.	8bb-X\L	8f/	-nu(m)	-num	8dd\	-nǔm	-num
*	*	*	*	*	*	*	*	*	*Xij	*Xij
!	!	!	!	!LO:TX:t=P:problem:kreska pseudotaktowa	!LO:TX:t=P:problem:kreska pseudotaktowa	!	!	!	!	!
.	.	.	.	8aa\J	8f/	di-	di-	8dd\	di-	di-
*	*	*	*	*	*custos:f	*	*	*	*	*
!	!	!	!	!	!LO:LB:g=original	!	!	!	!	!
=27-	=27-	=27-	=27-	=27-	=27-	=27-	=27-	=27-	=27-	=27-
2C/	.	.	.	4.gg\	4.f/	-lec-	-lec-	4.g/	-lec-	-lec-
.	.	4cc\	.	.	.	.	.	.	.	.
.	.	.	.	8ff\	8e/	-te	-te	8a\	-te	-te
4FF/	.	4cc\	.	8ff\L	4f/	mi	mi	4a\	mi	mi
.	.	.	.	8aa\	.	.	.	.	.	.
4BB-/	.	8dd\L	.	8bb-X\	8r	.	.	8r	.	.
!	!	!LO:TX:t=P:problem:kreska pseudotaktowa	!	!LO:TX:t=P:problem:kreska pseudotaktowa	!LO:TX:t=P:problem:kreska pseudotaktowa	!	!	!	!	!
.	.	8ff\J	.	8aa\J	8f/	di-	di-	8dd\	di-	di-
=28-	=28-	=28-	=28-	=28-	=28-	=28-	=28-	=28-	=28-	=28-
!LO:TX:t=P:problem:kreska pseudotaktowa	!	!	!	!	!	!	!	!	!	!
1C	4	2.cc\	.	2.gg\	4e/	-lec-	-lec-	2.g/	-lec-	-lec-
.	3	.	.	.	2f/	-te	-te	.	.	.
!	!	!LO:TX:t=P:problem:kreska pseudotaktowa	!	!LO:TX:t=P:problem:kreska pseudotaktowa	!LO:TX:t=P:problem:kreska pseudotaktowa	!	!	!	!	!
.	.	4cc\	.	4gg\	4e/	.	.	4g/	-te	-te
=29-	=29-	=29-	=29-	=29-	=29-	=29-	=29-	=29-	=29-	=29-
2FF/	.	4cc\	.	16ff\LL	4f/	mi.	mi.	4a\	mi,	mi.
.	.	.	.	16ccc\	.	.	.	.	.	.
.	.	.	.	16bb-\	.	.	.	.	.	.
.	.	.	.	16ccc\JJ	.	.	.	.	.	.
.	.	4r	.	16aa\LL	4r	.	.	4r	.	.
.	.	.	.	16gg\	.	.	.	.	.	.
.	.	.	.	16ff\	.	.	.	.	.	.
.	.	.	.	16eeny\JJ	.	.	.	.	.	.
2BB-/	.	16r	.	8dd\L	2r	.	.	2r	.	.
.	.	16ff\LL	.	.	.	.	.	.	.	.
.	.	16eeny\	.	8ee\J	.	.	.	.	.	.
.	.	16ff\JJ	.	.	.	.	.	.	.	.
!	!	!	!	!LO:TX:t=P:problem:kreska pseudotaktowa	!	!	!	!	!	!
.	.	16dd\LL	.	4ff\	.	.	.	.	.	.
.	.	16cc\	.	.	.	.	.	.	.	.
.	.	16b-\	.	.	.	.	.	.	.	.
!	!	!LO:TX:t=P:problem:kreska pseudotaktowa	!	!	!	!	!	!	!	!
.	.	16a\JJ	.	.	.	.	.	.	.	.
=30-	=30-	=30-	=30-	=30-	=30-	=30-	=30-	=30-	=30-	=30-
!	!	!	!	!	!LO:TX:b:t=6.:mod=	!	!	!LO:TX:b:t=9.:mod=	!	!
2C/	.	4.g/	.	16ee\LL	00r	.	.	00r	.	.
.	.	.	.	16gg\	.	.	.	.	.	.
.	.	.	.	16ff\	.	.	.	.	.	.
.	.	.	.	16gg\JJ	.	.	.	.	.	.
.	.	.	.	16ee\LL	.	.	.	.	.	.
.	.	.	.	16dd\	.	.	.	.	.	.
.	.	8g/	.	16cc\	.	.	.	.	.	.
.	.	.	.	16b-\JJ	.	.	.	.	.	.
!	!	!LO:TX:a:t=P:problem:mixed beam	!	!LO:TX:a:t=P:problem:mixed beam	!	!	!	!	!	!
4.F\	.	8f/L	.	8a/L	.	.	.	.	.	.
!	!	!LO:SIC:s=8ffJ	!	!LO:SIC:s=8aaJ	!	!	!	!	!	!
.	.	8ff\	.	8aa\	.	.	.	.	.	.
!	!	!LO:SIC:s=8ffL	!	!LO:SIC:s=8aaL	!	!	!	!	!	!
.	.	8ff\	.	8aa\	.	.	.	.	.	.
8G\	.	16ee\L	.	16gg\L	.	.	.	.	.	.
!	!	!LO:TX:t=P:problem:kreska pseudotaktowa	!	!LO:TX:t=P:problem:kreska pseudotaktowa	!	!	!	!	!	!
.	.	16dd\JJ	.	16ff\JJ	.	.	.	.	.	.
*	*	*custos:cc	*	*custos:ee	*	*	*	*	*	*
!	!	!LO:LB:g=original	!	!LO:LB:g=original	!	!	!	!	!	!
=31-	=31-	=31-	=31-	=31-	=31-	=31-	=31-	=31-	=31-	=31-
4A\	.	16cc\LL	.	16ee\LL	.	.	.	.	.	.
.	.	16b-\	.	16dd\	.	.	.	.	.	.
.	.	16cc\	.	16ee\	.	.	.	.	.	.
.	.	16dd\JJ	.	16ff\JJ	.	.	.	.	.	.
8Eny\L	.	8ee\L	.	8gg\L	.	.	.	.	.	.
8F\J	.	16dd\L	.	16ff\L	.	.	.	.	.	.
.	.	16cc\JJ	.	16ee\JJ	.	.	.	.	.	.
4G\	.	4.cc\	.	4.dd\	.	.	.	.	.	.
4GG/	.	.	.	.	.	.	.	.	.	.
!	!	!LO:TX:t=P:problem:kreska pseudotaktowa	!	!	!	!	!	!	!	!
!	!	!LO:N:acc=#	!	!LO:TX:t=P:problem:kreska pseudotaktowa	!	!	!	!	!	!
.	.	8bn/	.	8dd\	.	.	.	.	.	.
=32-	=32-	=32-	=32-	=32-	=32-	=32-	=32-	=32-	=32-	=32-
2C/	.	4cc\	.	16ee\LL	.	.	.	.	.	.
.	.	.	.	16gg\	.	.	.	.	.	.
.	.	.	.	16ff\	.	.	.	.	.	.
.	.	.	.	16gg\JJ	.	.	.	.	.	.
.	.	4gg\	.	16ee\LL	.	.	.	.	.	.
.	.	.	.	16dd\	.	.	.	.	.	.
.	.	.	.	16cc\	.	.	.	.	.	.
!	!	!	!	!LO:TX:t=P:problem:wykreślony takt	!	!	!	!	!	!
.	.	.	.	16b-\JJ	.	.	.	.	.	.
!	!	!	!	!LO:TX:a:t=P:problem:mixed beam	!	!	!	!	!	!
4FF/	.	8ff\L	.	8a/L	.	.	.	.	.	.
.	.	8aa\	.	8ccc\	.	.	.	.	.	.
!LO:TX:t=P:problem:kreska pseudotaktowa	!	!	!	!	!	!	!	!	!	!
4AA/	.	8aa\	.	8ccc\	.	.	.	.	.	.
!	!	!LO:TX:t=P:problem:kreska pseudotaktowa	!	!LO:TX:t=P:problem:kreska pseudotaktowa	!	!	!	!	!	!
.	.	8aa\J	.	8ccc\J	.	.	.	.	.	.
*custos:BB	*	*	*	*	*	*	*	*	*	*
!LO:LB:g=original	!	!	!	!	!	!	!	!	!	!
=33-	=33-	=33-	=33-	=33-	=33-	=33-	=33-	=33-	=33-	=33-
4BB-/	7	8aa\L	.	8bb-X\L	.	.	.	.	.	.
.	6	8gg\	.	8bb-\	.	.	.	.	.	.
4C/	.	8gg\	.	8bb-\	.	.	.	.	.	.
.	.	8gg\J	.	8bb-\J	.	.	.	.	.	.
4D/	4	8gg\L	.	4.aa\	.	.	.	.	.	.
.	3	8ff\J	.	.	.	.	.	.	.	.
!	!	!LO:TX:t=P:problem:kreska pseudotaktowa	!	!	!	!	!	!	!	!
8AA/L	6	4ff\	.	.	.	.	.	.	.	.
!LO:TX:t=P:problem:kreska pseudotaktowa	!	!	!	!LO:TX:t=P:problem:kreska pseudotaktowa	!	!	!	!	!	!
8BB-/J	.	.	.	8aa\	.	.	.	.	.	.
=34-	=34-	=34-	=34-	=34-	=34-	=34-	=34-	=34-	=34-	=34-
2C/	4	4.ff\	.	4.gg\	0r	.	.	00r	.	.
.	3	8ee\	.	8gg\	.	.	.	.	.	.
!	!	!	!LO:DY:b:Bi:t=pian.	!	!	!	!	!	!	!
4FF/	.	8ff\L	p	8aa\L	.	.	.	.	.	.
.	.	8aa\	.	8ccc\	.	.	.	.	.	.
4AA/	.	8aa\	.	8ccc\	.	.	.	.	.	.
!	!	!LO:TX:t=P:problem:kreska pseudotaktowa	!	!LO:TX:t=P:problem:kreska pseudotaktowa	!	!	!	!	!	!
.	.	8aa\J	.	8ccc\J	.	.	.	.	.	.
!	!	!	!	!LO:LB:g=original	!	!	!	!	!	!
=35-	=35-	=35-	=35-	=35-	=35-	=35-	=35-	=35-	=35-	=35-
4BB-/	7	8aa\L	.	8bb-X\L	.	.	.	.	.	.
.	6	8gg\	.	8bb-\	.	.	.	.	.	.
4C/	.	8gg\	.	8bb-\	.	.	.	.	.	.
.	.	8gg\J	.	8bb-\J	.	.	.	.	.	.
4D/	4	8gg\L	.	4.aa\	.	.	.	.	.	.
.	3	8ff\J	.	.	.	.	.	.	.	.
!	!	!LO:TX:t=P:problem:kreska pseudotaktowa	!	!	!	!	!	!	!	!
8AA/L	6	4ff\	.	.	.	.	.	.	.	.
!LO:TX:t=P:problem:kreska pseudotaktowa	!	!	!	!LO:TX:t=P:problem:kreska pseudotaktowa	!	!	!	!	!	!
8BB-/J	.	.	.	8aa\	.	.	.	.	.	.
=36-	=36-	=36-	=36-	=36-	=36-	=36-	=36-	=36-	=36-	=36-
2C/	.	4.ff\	.	4.gg\	2r	.	.	.	.	.
.	.	8ee\	.	8gg\	.	.	.	.	.	.
[2F\	.	4ff\	.	4aa\	4r	.	.	.	.	.
!	!	!LO:TX:t=P:problem:kreska pseudotaktowa	!	!	!LO:TX:t=P:problem:przekreślona synkopowana wartość	!	!	!	!	!
.	.	4r	.	4r	2cc\	O	O	.	.	.
*	*	*custos:a	*	*	*	*	*	*	*	*
!	!	!LO:LB:g=original	!	!	!	!	!	!	!	!
=37-	=37-	=37-	=37-	=37-	=37-	=37-	=37-	=37-	=37-	=37-
!	!	!LO:TX:b:t=11.:mod=	!	!LO:TX:b:t=10.:mod=	!	!	!	!	!	!
2F\]	.	00r	.	00r	.	.	.	.	.	.
.	.	.	.	.	8cc\	di-	di-	.	.	.
.	.	.	.	.	8cc\	-lec-	-lec-	.	.	.
2E\	#6	.	.	.	4cc#X\	-tiſ-	-tiſ-	.	.	.
.	.	.	.	.	8cc#X\	-si-	-si-	.	.	.
!	!	!	!	!	!LO:TX:t=P:problem:kreska pseudotaktowa	!	!	!	!	!
.	.	.	.	.	8dd\	-me	-me	.	.	.
=38-	=38-	=38-	=38-	=38-	=38-	=38-	=38-	=38-	=38-	=38-
2D/	.	.	.	.	4dd\	Je-	Je-	1r	.	.
.	.	.	.	.	4a\	-sǔ	-su	.	.	.
!LO:TX:t=P:problem:kreska pseudotaktowa	!	!	!	!	!	!	!	!	!	!
2GG/	.	.	.	.	4.b-\	ro-	ro-	.	.	.
!	!	!	!	!	!LO:TX:t=P:problem:kreska pseudotaktowa	!	!	!	!	!
.	.	.	.	.	8ccny\	-go	-go	.	.	.
*	*	*	*	*	*	*	*	*custos:f	*	*
!	!	!	!	!	!	!	!	!LO:LB:g=original	!	!
=39-	=39-	=39-	=39-	=39-	=39-	=39-	=39-	=39-	=39-	=39-
2.D/	-	.	.	.	2a\	te	te	4r	.	.
.	.	.	.	.	.	.	.	2f/	O	O
.	.	.	.	.	2r	.	.	.	.	.
4BB-/	.	.	.	.	.	.	.	8f/	di-	di-
!	!	!	!	!	!	!	!	!LO:TX:t=P:problem:kreska pseudotaktowa	!	!
.	.	.	.	.	.	.	.	8f/	-lec-	-lec-
=40-	=40-	=40-	=40-	=40-	=40-	=40-	=40-	=40-	=40-	=40-
!	!	!	!	!	!LO:TX:b:t=2.:mod=	!	!	!	!	!
2AA/	#6	.	.	.	0r	.	.	4f#X/	-tiſ-	-tiſ-
.	.	.	.	.	.	.	.	8f#X/	-ſi-	-ſi-
.	.	.	.	.	.	.	.	8g/	-me	-me
!LO:TX:t=P:problem:kreska pseudotaktowa	!	!	!	!	!	!	!	!	!	!
2GG/	.	.	.	.	.	.	.	4g/	Je-	Je-
!	!	!	!	!	!	!	!	!LO:TX:t=P:problem:kreska pseudotaktowa	!	!
.	.	.	.	.	.	.	.	4d/	-ſǔ	-ſu
=41-	=41-	=41-	=41-	=41-	=41-	=41-	=41-	=41-	=41-	=41-
2C/	-	00r	.	00r	.	.	.	4.e-X/	ro-	ro-
.	.	.	.	.	.	.	.	8fny/	-go	-go
4GG/	.	.	.	.	.	.	.	4d/	te	te
!LO:TX:t=P:problem:kreska pseudotaktowa	!	!	!	!	!	!	!	!	!	!
4G\	.	.	.	.	.	.	.	8d/	ro-	ro-
!	!	!	!	!	!	!	!	!LO:TX:t=P:problem:kreska pseudotaktowa	!	!
.	.	.	.	.	.	.	.	8eny/	-go	-go
*	*	*	*	*	*custos:a	*	*	*	*	*
!	!	!	!	!	!LO:LB:g=original	!	!	!	!	!
=42-	=42-	=42-	=42-	=42-	=42-	=42-	=42-	=42-	=42-	=42-
2D/	.	.	.	.	4r	.	.	4f/	te,	te,
.	.	.	.	.	8a\	ro-	ro-	8f/	ro-	ro-
.	.	.	.	.	8b-\	-go	-go	8g/	-go	-go
[2C/	.	.	.	.	4ccny\	te	te	4a\	te	te
*	*	*	*	*	*	*ij	*ij	*	*ij	*ij
!	!	!	!	!	!LO:TX:t=P:problem:przekreślona synkopowana wartość	!	!	!LO:TX:t=P:problem:kreska pseudotaktowa nad półnutą (?)	!	!
.	.	.	.	.	2cc\	ro-	ro-	2a\	ro-	ro-
=43-	=43-	=43-	=43-	=43-	=43-	=43-	=43-	=43-	=43-	=43-
2C/]	6	.	.	.	.	.	.	.	.	.
.	5	.	.	.	4b-\	-go	-go	4g/	-go	-go
*	*	*	*	*	*	*Xij	*Xij	*	*Xij	*Xij
2D/	4	.	.	.	4.a\	ro-	ro-	4.g/	-ro-	-ro-
!	!	!	!	!	!LO:TX:t=P:problem:kreska pseudotaktowa	!	!	!LO:TX:t=P:problem:kreska pseudotaktowa	!	!
.	3	.	.	.	8b-\	-go	-go	8f#X/	-go	-go
*custos:GG	*	*	*	*	*	*	*	*	*	*
!LO:LB:g=original	!	!	!	!	!	!	!	!	!	!
=44-	=44-	=44-	=44-	=44-	=44-	=44-	=44-	=44-	=44-	=44-
2GG/	.	.	.	.	4b-\	te	te	4g/	te	te
*	*	*	*	*	*	*ij	*ij	*	*	*
.	.	.	.	.	8g/	ro-	ro-	4r	.	.
.	.	.	.	.	8a\	-go	-go	.	.	.
*	*	*	*	*	*	*	*	*custos:dd	*	*
!	!	!	!	!	!	!	!	!LO:LB:g=original	!	!
2G\	.	.	.	.	4b-\	te	te	4r	.	.
.	.	.	.	.	8b-\	ro-	ro-	8dd\	ro-	ro-
!	!	!	!	!	!LO:TX:t=P:problem:kreska pseudotaktowa	!	!	!LO:TX:t=P:problem:kreska pseudotaktowa	!	!
.	.	.	.	.	8cc\	-go	-go	8eeny\	-go	-go
=45-	=45-	=45-	=45-	=45-	=45-	=45-	=45-	=45-	=45-	=45-
2F\	.	0r	.	0r	4dd\	te	te	4ff\	te	te
*	*	*	*	*	*	*Xij	*Xij	*	*	*
.	.	.	.	.	2cc\	ro-	ro-	2ee-X\	ro-	ro-
!LO:TX:t=P:problem:kreska pseudotaktowa	!	!	!	!	!	!	!	!	!	!
2G\	-6r 4	.	.	.	.	.	.	.	.	.
!	!	!	!	!	!LO:TX:t=P:problem:kreska pseudotaktowa	!	!	!	!	!
!	!	!	!	!	!LO:N:acc=#	!	!	!	!	!
.	5 3	.	.	.	4bn\	-go	-go	8dd\L	-go	-go
!	!	!	!	!	!	!	!	!LO:TX:t=P:problem:kreska pseudotaktowa	!	!
.	.	.	.	.	.	.	.	8ee-\J	.	.
=46-	=46-	=46-	=46-	=46-	=46-	=46-	=46-	=46-	=46-	=46-
!LO:TX:b:B:t=Allegro.:mod=	!	!	!	!	!LO:TX:a:t=P:problem:mixed beam	!	!	!	!	!
2C/	.	.	.	.	8cc\L	te	te	4cc\	te	te
.	.	.	.	.	(16c/L	ſa-	ſa-	.	.	.
.	.	.	.	.	16d/JJ)	.	.	.	.	.
.	.	.	.	.	(16e/LL	-git-	-git-	4r	.	.
.	.	.	.	.	16f/JJ)	.	.	.	.	.
.	.	.	.	.	(16g/LL	-tis	-tis	.	.	.
.	.	.	.	.	16a/JJ)	.	.	.	.	.
*	*	*	*	*	*custos:b	*	*	*	*	*
!	!	!	!	!	!LO:LB:g=original	!	!	!	!	!
4GG/	.	.	.	.	4b-y\	tǔ-	tu-	8r	.	.
.	.	.	.	.	.	.	.	(16g/LL	ſa-	ſa-
.	.	.	.	.	.	.	.	16a/JJ)	.	.
4G\	.	.	.	.	8g/	-is	-is	16b-\LL	-git-	-git-
.	.	.	.	.	.	.	.	16cc\JJ	.	.
!	!	!	!	!	!LO:TX:t=P:problem:kreska pseudotaktowa	!	!	!	!	!
.	.	.	.	.	8b-\	con-	con-	(16dd\LL	-tis	-tis
!	!	!	!	!	!	!	!	!LO:TX:t=P:problem:kreska pseudotaktowa	!	!
.	.	.	.	.	.	.	.	16eeny\JJ)	.	.
=47-	=47-	=47-	=47-	=47-	=47-	=47-	=47-	=47-	=47-	=47-
8D\L	.	1r	.	2r	4.b-\	-fi-	-fi-	8ff\	tu-	tu-
8E-X\J	.	.	.	.	.	.	.	16ee-X\	-is	-is
.	.	.	.	.	.	.	.	16dd\	con-	con-
4F\	.	.	.	.	.	.	.	8.cc\	-fi-	-fi-
.	.	.	.	.	8a\	-ge	-ge	.	.	.
.	.	.	.	.	.	.	.	16b-\	-ge	-ge
!LO:TX:t=P:problem:kreska pseudotaktowa	!	!	!	!	!	!	!	!	!	!
2BB-/	.	.	.	8r	4b-\	me	me	4b-\	me	me
.	.	.	.	16b-\LL	.	.	.	.	.	.
.	.	.	.	16cc\JJ	.	.	.	.	.	.
.	.	.	.	16dd\LL	4r	.	.	4r	.	.
.	.	.	.	16ee\	.	.	.	.	.	.
.	.	.	.	16ff\	.	.	.	.	.	.
!	!	!	!	!LO:TX:t=P:problem:kreska pseudotaktowa	!	!	!	!	!	!
.	.	.	.	16gg\JJ	.	.	.	.	.	.
=48-	=48-	=48-	=48-	=48-	=48-	=48-	=48-	=48-	=48-	=48-
2AA/	.	8r	.	4.aa\	1r	.	.	1r	.	.
.	.	16a/LL	.	.	.	.	.	.	.	.
.	.	16b-y/JJ	.	.	.	.	.	.	.	.
.	.	16cc\LL	.	.	.	.	.	.	.	.
.	.	16dd\	.	.	.	.	.	.	.	.
.	.	16ee\	.	8a/	.	.	.	.	.	.
.	.	16ff\JJ	.	.	.	.	.	.	.	.
!	!	!	!	!LO:N:acc=#	!	!	!	!	!	!
4GG/	#	8gg\L	.	8bn/	.	.	.	.	.	.
.	.	16gg\L	.	4dd\	.	.	.	.	.	.
.	.	16ff\JJ	.	.	.	.	.	.	.	.
4AA/	4	8ee\L	.	.	.	.	.	.	.	.
.	3	.	.	.	.	.	.	.	.	.
!	!	!LO:TX:t=P:problem:kreska pseudotaktowa	!	!LO:TX:t=P:problem:kreska pseudotaktowa	!	!	!	!	!	!
.	.	8ee\J	.	8cc#X\	.	.	.	.	.	.
=49-	=49-	=49-	=49-	=49-	=49-	=49-	=49-	=49-	=49-	=49-
2D/	.	4ff\	.	4dd\	8r	.	.	8r	.	.
.	.	.	.	.	(<16f/LL	ſa-	ſa-	(16d/LL	ſa-	ſa-
!	!	!	!	!	!LO:SIC:s=16gJJ)	!	!	!	!	!
.	.	.	.	.	16g/JJ	.	.	16ey/JJ)	.	.
!	!	!	!	!	!LO:SIC:s=(16aLL	!	!	!	!	!
.	.	4r	.	4r	(16a\LL)	-git-	-git-	(<16fny/LL	-git-	-git-
!	!	!	!	!	!	!	!	!LO:SIC:s=16gJJ)	!	!
.	.	.	.	.	16b-\JJ)	.	.	16g/JJ	.	.
.	.	.	.	.	(16cc\LL	-tis	-tis	(16a\LL)	-tis	-tis
.	.	.	.	.	16dd\JJ)	.	.	16b-\JJ)	.	.
*	*	*	*	*	*	*	*	*custos:cc	*	*
!LO:TX:t=P:problem:kreska pseudotaktowa	!	!	!	!	!	!	!	!LO:LB:g=original	!	!
2C/	-	8r	.	8r	8ee-\	tǔ-	tu-	8cc\	tu-	tu-
.	.	16cc\LL	.	16ee-X\LL	8ee-\	-is	-is	8cc\	-is	-is
.	.	16dd\JJ	.	16ff\JJ	.	.	.	.	.	.
!	!	!	!	!	!LO:TX:t=P:problem:kreska pseudotaktowa	!	!	!LO:TX:t=P:problem:kreska pseudotaktowa	!	!
.	.	16ee-X\LL	.	16gg\LL	4r	.	.	4r	.	.
.	.	16ff\	.	16aa\	.	.	.	.	.	.
.	.	16ee-\	.	16gg\	.	.	.	.	.	.
!	!	!LO:TX:t=P:problem:kreska pseudotaktowa	!	!LO:TX:t=P:problem:kreska pseudotaktowa	!	!	!	!	!	!
.	.	16ff\JJ	.	16aa\JJ	.	.	.	.	.	.
*	*	*	*	*custos:bb	*	*	*	*	*	*
!	!	!	!	!LO:LB:g=original	!	!	!	!	!	!
=50-	=50-	=50-	=50-	=50-	=50-	=50-	=50-	=50-	=50-	=50-
4GG/	.	4gg\	.	4.bb-X\	2r	.	.	8r	.	.
.	.	.	.	.	.	.	.	(16g\LL	ſa-	ſa-
.	.	.	.	.	.	.	.	16a\JJ)	.	.
4G\	.	4dd\	.	.	.	.	.	(16b-\LL	-git-	-git-
.	.	.	.	.	.	.	.	16cc\JJ)	.	.
.	.	.	.	8bb-\	.	.	.	(16dd\LL	-tis	-tis
.	.	.	.	.	.	.	.	16eeny\JJ)	.	.
2D/	.	4.dd\	.	4.aa\	8r	.	.	4ff\	tu-	tu-
.	.	.	.	.	(16d/L	ſa-	ſa-	.	.	.
!	!	!	!	!	!LO:SIC:s=16eJ)	!	!	!	!	!
.	.	.	.	.	16e/J	.	.	.	.	.
!	!	!	!	!	!	!LO:MO:mod=-git-	!	!	!	!
.	.	.	.	.	(16f/L)	-gil-	-git-	8dd\	-is	-is
.	.	.	.	.	16g/J)	.	.	.	.	.
!	!	!LO:TX:t=P:problem:kreska pseudotaktowa	!	!LO:TX:t=P:problem:kreska pseudotaktowa	!	!LO:MO:mod=-tis	!	!LO:TX:t=P:problem:kreska pseudotaktowa	!	!
.	.	8dd\	.	8aa\	(16a\L	-lis	-tis	8ff\	con-	con-
!	!	!	!	!	!LO:TX:t=P:problem:kreska pseudotaktowa	!	!	!	!	!
.	.	.	.	.	16b-\J)	.	.	.	.	.
*	*	*	*	*	*custos:cc	*	*	*	*	*
!	!	!	!	!	!LO:LB:g=original	!	!	!	!	!
=51-	=51-	=51-	=51-	=51-	=51-	=51-	=51-	=51-	=51-	=51-
8AA/L	6	8cc\L	.	4aa\	8cc\	tǔ-	tu-	4.ff\	-fi-	-fi-
8BB-/J	.	8dd\J	.	.	16b-\	-is	-is	.	.	.
.	.	.	.	.	16a\	con-	con-	.	.	.
4C/	.	4cc\	.	4r	8.g\	-fi-	-fi-	.	.	.
.	.	.	.	.	.	.	.	8ee\	-ge	-ge
.	.	.	.	.	16a\	-ge	-ge	.	.	.
4FF/	.	8a/L	.	8r	4f/	me	me	4ff\	me	me
.	.	16f/L	.	16a/LL	.	.	.	.	.	.
.	.	16g/JJ	.	16b-y/JJ	.	.	.	.	.	.
!LO:TX:t=P:problem:kreska pseudotaktowa	!	!	!	!	!	!	!	!LO:TX:t=P:problem:kreska pseudotaktowa	!	!
4F\	.	16a/LL	.	16ccny\LL	4r	.	.	4r	.	.
.	.	16b-/	.	16dd\	.	.	.	.	.	.
.	.	16cc/	.	16eeny\	.	.	.	.	.	.
!	!	!LO:TX:t=P:problem:kreska pseudotaktowa	!	!LO:TX:t=P:problem:kreska pseudotaktowa	!	!	!	!	!	!
.	.	16dd/JJ	.	16ff\JJ	.	.	.	.	.	.
*	*	*custos:ee	*	*	*	*	*	*	*	*
!	!	!LO:LB:g=original	!	!	!	!	!	!	!	!
=52-	=52-	=52-	=52-	=52-	=52-	=52-	=52-	=52-	=52-	=52-
!	!	!	!	!	!	!	!	!LO:TX:b:t=2.:mod=	!	!
2C/	.	8eeny\L	.	8gg\L	1r	.	.	0r	.	.
.	.	16cc\L	.	16ee\L	.	.	.	.	.	.
.	.	16dd\JJ	.	16ff\JJ	.	.	.	.	.	.
.	.	16ee\LL	.	16gg\LL	.	.	.	.	.	.
.	.	16ff\	.	16aa\	.	.	.	.	.	.
.	.	16ee\	.	16gg\	.	.	.	.	.	.
.	.	16ff\JJ	.	16aa\JJ	.	.	.	.	.	.
8GG/L	.	8gg\L	.	8bb-X\L	.	.	.	.	.	.
8AA/J	.	16ff\L	.	16aa\L	.	.	.	.	.	.
.	.	16ee\JJ	.	16gg\JJ	.	.	.	.	.	.
4BB-/	.	16dd\LL	.	16ff\LL	.	.	.	.	.	.
.	.	16cc\	.	16ee\	.	.	.	.	.	.
.	.	16dd\	.	16ff\	.	.	.	.	.	.
!	!	!LO:TX:t=P:problem:kreska pseudotaktowa	!	!LO:TX:t=P:problem:kreska pseudotaktowa	!	!	!	!	!	!
.	.	16ee\JJ	.	16gg\JJ	.	.	.	.	.	.
=53-	=53-	=53-	=53-	=53-	=53-	=53-	=53-	=53-	=53-	=53-
8FF/L	.	8ff\L	.	8aa\L	2r	.	.	.	.	.
8GG/J	.	16ee\L	.	16gg\L	.	.	.	.	.	.
.	.	16dd\JJ	.	16ff\JJ	.	.	.	.	.	.
4AA/	.	8dd\L	.	16ee\LL	.	.	.	.	.	.
.	.	.	.	16dd\	.	.	.	.	.	.
.	.	8cc#X\J	.	16ee\	.	.	.	.	.	.
.	.	.	.	16ff\JJ	.	.	.	.	.	.
!LO:TX:t=P:problem:kreska pseudotaktowa	!	!	!	!	!	!	!	!	!	!
2D/	4	4dd\	.	4dd\	8r	.	.	.	.	.
.	3	.	.	.	(16d/LL	ſa-	ſa-	.	.	.
!	!	!	!	!	!LO:SIC:s=16eJJ)	!	!	!	!	!
.	.	.	.	.	16e/JJ	.	.	.	.	.
!	!	!LO:TX:t=P:problem:kreska pseudotaktowa	!	!LO:TX:t=P:problem:kreska pseudotaktowa	!	!	!	!	!	!
.	.	4r	.	4r	(<16f/LL)	-git-	-git-	.	.	.
!	!	!	!	!	!LO:SIC:s=16gJJ)	!	!	!	!	!
.	.	.	.	.	16g/JJ	.	.	.	.	.
.	.	.	.	.	(16a\LL)	-tis	-tis	.	.	.
!	!	!	!	!	!LO:TX:t=P:problem:kreska pseudotaktowa	!	!	!	!	!
.	.	.	.	.	16b-\JJ)	.	.	.	.	.
*	*	*	*	*custos:b	*	*	*	*	*	*
!	!	!	!	!LO:LB:g=original	!	!	!	!	!	!
=54-	=54-	=54-	=54-	=54-	=54-	=54-	=54-	=54-	=54-	=54-
2AA/	.	2r	.	2r	4cc\	tǔ-	tu-	8r	.	.
.	.	.	.	.	.	.	.	(16c/LL	ſa-	ſa-
.	.	.	.	.	.	.	.	16d/JJ)	.	.
.	.	.	.	.	8c/	-is	-is	(16e/LL	-git-	-git-
.	.	.	.	.	.	.	.	16f/JJ)	.	.
.	.	.	.	.	8e/	con-	con-	(16g/LL	-tis	-tis
.	.	.	.	.	.	.	.	16a/JJ)	.	.
!LO:TX:t=P:problem:kreska pseudotaktowa	!	!	!	!	!	!	!	!	!	!
4GG/	.	8r	.	8r	4g/	-fi-	-fi-	4b-X\	tu-	tu-
.	.	16g/LL	.	16b-\LL	.	.	.	.	.	.
.	.	16a/JJ	.	16cc\JJ	.	.	.	.	.	.
4G\	.	16b-\LL	.	16dd\LL	8g/	-ge	-ge	8b-\	-is	-is
.	.	16ccny\	.	16ee\	.	.	.	.	.	.
!	!	!	!	!	!LO:TX:t=P:problem:kreska pseudotaktowa	!	!	!LO:TX:t=P:problem:kreska pseudotaktowa	!	!
.	.	16b-\	.	16dd\	8g/	con-	con-	8b-\	con-	con-
!	!	!LO:TX:t=P:problem:kreska pseudotaktowa	!	!LO:TX:t=P:problem:kreska pseudotaktowa	!	!	!	!	!	!
.	.	16cc\JJ	.	16ee\JJ	.	.	.	.	.	.
*custos:D	*	*	*	*	*	*	*	*custos:a	*	*
!LO:LB:g=original	!	!	!	!	!	!	!	!LO:LB:g=original	!	!
=55-	=55-	=55-	=55-	=55-	=55-	=55-	=55-	=55-	=55-	=55-
2D/	.	8dd\L	.	8ff\L	4.f/	-fi-	-fi-	4.a\	-fi-	-fi-
.	.	16dd\L	.	16ff\L	.	.	.	.	.	.
.	.	16ee\JJ	.	16gg\JJ	.	.	.	.	.	.
.	.	16ff\LL	.	16aa\LL	.	.	.	.	.	.
.	.	16gg\	.	16bb-\	.	.	.	.	.	.
.	.	16ff\	.	16aa\	8f/	-ge	-ge	8a\	-ge	-ge
.	.	16gg\JJ	.	16bb-\JJ	.	.	.	.	.	.
*	*	*custos:aa	*	*	*	*	*	*	*	*
!	!	!LO:LB:g=original	!	!	!	!	!	!	!	!
8AA/L	.	8aa\L	.	8ccc\L	4e/	me	me	4a\	me	me
8BB-/J	.	16gg\L	.	16bb-\L	.	.	.	.	.	.
.	.	16ff\JJ	.	16aa\JJ	.	.	.	.	.	.
!LO:TX:t=P:problem:kreska pseudotaktowa	!	!	!	!	!LO:TX:t=P:problem:kreska pseudotaktowa	!	!	!LO:TX:t=P:problem:kreska pseudotaktowa	!	!
4C/	.	8.ee\L	.	8.gg\	4r	.	.	4r	.	.
!	!	!LO:TX:t=P:problem:kreska pseudotaktowa	!	!LO:TX:t=P:problem:kreska pseudotaktowa	!	!	!	!	!	!
.	.	16ee\Jk	.	16gg\	.	.	.	.	.	.
!	!	!	!	!	!LO:LB:g=original	!	!	!	!	!
=56-	=56-	=56-	=56-	=56-	=56-	=56-	=56-	=56-	=56-	=56-
2F\	.	4ff\	.	4aa\	8r	.	.	2r	.	.
.	.	.	.	.	(<16f/LL	ſa-	ſa-	.	.	.
!	!	!	!	!	!LO:SIC:s=16gJJ)	!	!	!	!	!
.	.	.	.	.	16g/JJ	.	.	.	.	.
.	.	4r	.	4r	(16a\LL)	-git-	-git-	.	.	.
.	.	.	.	.	16b-\JJ)	.	.	.	.	.
.	.	.	.	.	(16cc\LL	-tis	-tis	.	.	.
.	.	.	.	.	16dd\JJ)	.	.	.	.	.
!	!	!	!	!LO:TX:b:t=1.:mod=	!	!	!	!	!	!
2C/	-	2r	.	2r	4ee-X\	tǔ-	tu-	8r	.	.
.	.	.	.	.	.	.	.	(16c/LL	ſa-	ſa-
!	!	!	!	!	!	!	!	!LO:SIC:s=16dJJ)	!	!
.	.	.	.	.	.	.	.	16d/JJ	.	.
.	.	.	.	.	8ee-\	-is	-is	(16e-X/LL)	-git-	-git-
.	.	.	.	.	.	.	.	16f/JJ)	.	.
!	!	!	!	!	!LO:TX:t=P:problem:kreska pseudotaktowa	!	!	!	!	!
!	!	!	!	!	!LO:SIC:v:s=8e-/	!	!	!	!	!
.	.	.	.	.	8e/	con-	con-	(16g/LL	-tis	-tis
!	!	!	!	!	!	!	!	!LO:TX:t=P:problem:kreska pseudotaktowa	!	!
.	.	.	.	.	.	.	.	16a/JJ)	.	.
=57-	=57-	=57-	=57-	=57-	=57-	=57-	=57-	=57-	=57-	=57-
!	!	!LO:TX:b:i:t=Verte.:mod=	!	!	!	!	!	!	!	!
!	!	!LO:TX:b:t=1.:mod=	!	!LO:TX:b:i:t=Verte Cito.:mod=	!	!	!	!	!	!
4GG/	.	1r	.	1r	4g/	-fi-	-fi-	4b-\	tǔ-	tu-
4C/	.	.	.	.	8g/	-ge	-ge	8b-\	-is	-is
.	.	.	.	.	8g/	con-	con-	8a\	con-	con-
!LO:TX:t=P:problem:kreska pseudotaktowa	!	!	!	!	!	!	!	!	!	!
2D/	4	.	.	.	4.g/	-fi-	-fi-	(16a\LL	-fi-	-fi-
.	3	.	.	.	.	.	.	16g\	.	.
.	.	.	.	.	.	.	.	16a\	.	.
.	.	.	.	.	.	.	.	16b-\JJ)	.	.
.	.	.	.	.	.	.	.	8.a\	.	.
!	!	!	!	!	!LO:TX:t=P:problem:kreska pseudotaktowa	!	!	!	!	!
.	.	.	.	.	8f#X/	-ge	-ge	.	.	.
!	!	!	!	!	!	!	!	!LO:TX:t=P:problem:kreska pseudotaktowa	!	!
.	.	.	.	.	.	.	.	16b-\	-ge	-ge
*	*	*custos:g	*	*custos:b	*	*	*	*	*	*
!	!	!LO:PB:g=original	!	!LO:PB:g=original	!	!	!	!	!	!
=58-	=58-	=58-	=58-	=58-	=58-	=58-	=58-	=58-	=58-	=58-
2G\	.	8r	.	8r	4g/	me.	me.	4g/	me	me
.	.	16g/LL	.	16b-/LL	.	.	.	.	.	.
.	.	16a/JJ	.	16cc/JJ	.	.	.	.	.	.
.	.	16b-\LL	.	16dd\LL	4r	.	.	4r	.	.
.	.	16cc\	.	16ee\	.	.	.	.	.	.
.	.	16b-\	.	16dd\	.	.	.	.	.	.
.	.	16cc\JJ	.	16ee\JJ	.	.	.	.	.	.
8D\L	.	8dd\L	.	8ff\L	2r	.	.	2r	.	.
8E-X\J	6	16cc\L	.	16ee-X\L	.	.	.	.	.	.
.	.	16b-\JJ	.	16dd\JJ	.	.	.	.	.	.
4F\	.	16a/LL	.	16cc\LL	.	.	.	.	.	.
.	.	16g/	.	16b-\	.	.	.	.	.	.
.	.	16a/	.	16cc\	.	.	.	.	.	.
!	!	!LO:TX:t=P:problem:kreska pseudotaktowa	!	!LO:TX:t=P:problem:kreska pseudotaktowa	!	!	!	!	!	!
.	.	16b-/JJ	.	16dd\JJ	.	.	.	.	.	.
=59-	=59-	=59-	=59-	=59-	=59-	=59-	=59-	=59-	=59-	=59-
4.C/	-	16cc\LL	.	16ee-X\LL	1r	.	.	1r	.	.
.	.	16dd\	.	16ff\	.	.	.	.	.	.
.	.	16cc\	.	16ee-\	.	.	.	.	.	.
.	.	16dd\JJ	.	16ff\JJ	.	.	.	.	.	.
.	.	8ee-X\L	.	8gg\L	.	.	.	.	.	.
8F\	.	16dd\L	.	16ff\L	.	.	.	.	.	.
.	.	16cc\JJ	.	16ee-\JJ	.	.	.	.	.	.
!	!	!LO:N:acc=#	!	!	!	!	!	!	!	!
4G\	3	8bn\	.	16dd\LL	.	.	.	.	.	.
.	4	.	.	16cc\	.	.	.	.	.	.
.	3	4cc\	.	16dd\	.	.	.	.	.	.
.	.	.	.	16ee-\JJ	.	.	.	.	.	.
!LO:TX:t=P:problem:kreska pseudotaktowa	!	!	!	!LO:TX:t=P:problem:kreska pseudotaktowa	!	!	!	!	!	!
4GG/	.	.	.	4dd\	.	.	.	.	.	.
!	!	!LO:TX:t=P:problem:kreska pseudotaktowa	!	!	!	!	!	!	!	!
!	!	!LO:N:acc=#	!	!	!	!	!	!	!	!
!	!	!LO:SIC:s=8b	!	!	!	!	!	!	!	!
.	.	8bn\	.	.	.	.	.	.	.	.
*	*	*	*	*	*custos:c	*	*	*custos:g	*	*
!	!	!	!	!	!LO:PB:g=original	!	!	!LO:PB:g=original	!	!
=60-	=60-	=60-	=60-	=60-	=60-	=60-	=60-	=60-	=60-	=60-
!	!	!	!	!LO:TX:a:t=P:problem:mixed beam	!	!	!	!	!	!
2C/	.	4cc\	.	8eeny\L	8r	.	.	2r	.	.
.	.	.	.	16e/L	(16c/LL	ſa-	ſa-	.	.	.
.	.	.	.	16f/JJ	16d/JJ)	.	.	.	.	.
.	.	4g/	.	16g/LL	(16e/LL	-git-	-git-	.	.	.
.	.	.	.	16a/	16fny/JJ)	.	.	.	.	.
.	.	.	.	16b-/	(16g/LL	-tis	-tis	.	.	.
.	.	.	.	16cc/JJ	16a/JJ)	.	.	.	.	.
4GG/	.	4.g/	.	4dd\	4b-\	tǔ-	tu-	8r	.	.
.	.	.	.	.	.	.	.	(16g\LL	ſa-	ſa-
.	.	.	.	.	.	.	.	16a\JJ)	.	.
!	!	!	!	!LO:TX:t=P:problem:kreska pseudotaktowa	!	!	!	!	!	!
4G\	.	.	.	4dd\	8g\	-is	-is	(16b-\LL	-git-	-git-
.	.	.	.	.	.	.	.	16cc\JJ)	.	.
!	!	!LO:TX:t=P:problem:kreska pseudotaktowa	!	!	!LO:TX:t=P:problem:kreska pseudotaktowa	!	!	!	!	!
.	.	8g/	.	.	8b-\	con-	con-	(16dd\LL	-tis	-tis
!	!	!	!	!	!	!	!	!LO:TX:t=P:problem:kreska pseudotaktowa	!	!
.	.	.	.	.	.	.	.	16ee\JJ)	.	.
*	*	*	*	*custos:b	*	*	*	*	*	*
!	!	!	!	!LO:LB:g=original	!	!	!	!	!	!
=61-	=61-	=61-	=61-	=61-	=61-	=61-	=61-	=61-	=61-	=61-
8D\L	.	8f/L	.	2r	4.b-\	-fi-	-fi-	8ff\	tǔ-	tu-
8E-X\J	.	8g/J	.	.	.	.	.	16ee-X\	-is	-is
.	.	.	.	.	.	.	.	16dd\	con-	con-
4F\	.	4f/	.	.	.	.	.	8.cc\	-fi-	-fi-
.	.	.	.	.	8a\	-ge	-ge	.	.	.
.	.	.	.	.	.	.	.	16cc\	-ge	-ge
2BB-/	.	2f/	.	8r	4b-\	me	me	4.dd\	me	me
.	.	.	.	16b-\LL	.	.	.	.	.	.
.	.	.	.	16cc\JJ	.	.	.	.	.	.
.	.	.	.	16dd\LL	4r	.	.	.	.	.
.	.	.	.	16ee\	.	.	.	.	.	.
!	!	!	!	!	!	!	!	!LO:TX:t=P:problem:kreska pseudotaktowa	!	!
.	.	.	.	16ff\	.	.	.	8dd\	con-	con-
!	!	!	!	!LO:TX:t=P:problem:kreska pseudotaktowa	!	!	!	!	!	!
.	.	.	.	16gg\JJ	.	.	.	.	.	.
*	*	*custos:a	*	*	*	*	*	*	*	*
!	!	!LO:LB:g=original	!	!	!	!	!	!	!	!
=62-	=62-	=62-	=62-	=62-	=62-	=62-	=62-	=62-	=62-	=62-
2AA/	.	8r	.	4.aa\	1r	.	.	4.cc\	-fi-	-fi-
.	.	16a/LL	.	.	.	.	.	.	.	.
.	.	16b-y/JJ	.	.	.	.	.	.	.	.
.	.	16cc\LL	.	.	.	.	.	.	.	.
.	.	16dd\	.	.	.	.	.	.	.	.
.	.	16eeny\	.	8a/	.	.	.	8cc\	-ge	-ge
.	.	16ff\JJ	.	.	.	.	.	.	.	.
4GG/	.	8gg\L	.	8b-/L	.	.	.	4b-\	me	me
.	.	16ff\L	.	8g/J	.	.	.	.	.	.
.	.	16ee\JJ	.	.	.	.	.	.	.	.
!LO:TX:t=P:problem:kreska pseudotaktowa	!	!	!	!	!	!	!	!LO:TX:t=P:problem:kreska pseudotaktowa	!	!
4G\	.	16dd\LL	.	16b-/LL	.	.	.	4r	.	.
.	.	16cc\	.	16a/	.	.	.	.	.	.
.	.	16dd\	.	16b-/	.	.	.	.	.	.
!	!	!LO:TX:t=P:problem:kreska pseudotaktowa	!	!LO:TX:t=P:problem:kreska pseudotaktowa	!	!	!	!	!	!
.	.	16ee\JJ	.	16cc/JJ	.	.	.	.	.	.
=63-	=63-	=63-	=63-	=63-	=63-	=63-	=63-	=63-	=63-	=63-
2D/	.	4ff\	.	4dd\	8r	.	.	8r	.	.
.	.	.	.	.	(16f/LL	ſa-	ſa-	(16d/LL	ſa-	ſa-
.	.	.	.	.	16g/JJ)	.	.	16eny/JJ)	.	.
.	.	4r	.	4r	(16a\LL	-git-	-git-	(16f/LL	-git-	-git-
.	.	.	.	.	16b-\JJ)	.	.	16g/JJ)	.	.
.	.	.	.	.	(16cc\LL	-tis	-tis	(16a\LL	-tis	-tis
.	.	.	.	.	16dd\JJ)	.	.	16b-\JJ)	.	.
2C/	-	8r	.	8r	8ee-X\	tǔ-	tu-	8cc\	tǔ-	tu-
.	.	16cc\LL	.	16ee-X\LL	8ee-\	-is	-is	8cc\	-is	-is
.	.	16dd\JJ	.	16ff\JJ	.	.	.	.	.	.
!	!	!	!	!	!LO:TX:t=P:problem:kreska pseudotaktowa	!	!	!LO:TX:t=P:problem:kreska pseudotaktowa	!	!
.	.	16ee-X\LL	.	16gg\LL	4r	.	.	4r	.	.
.	.	16ff\	.	16aa\	.	.	.	.	.	.
.	.	16ee-\	.	16gg\	.	.	.	.	.	.
!	!	!LO:TX:t=P:problem:kreska pseudotaktowa	!	!LO:TX:t=P:problem:kreska pseudotaktowa	!	!	!	!	!	!
.	.	16ff\JJ	.	16aa\JJ	.	.	.	.	.	.
*custos:GG	*	*	*	*	*	*	*	*custos:g	*	*
!LO:LB:g=original	!	!	!	!	!	!	!	!LO:LB:g=original	!	!
=64-	=64-	=64-	=64-	=64-	=64-	=64-	=64-	=64-	=64-	=64-
4GG/	.	4gg\	.	4.bb-\	2r	.	.	8r	.	.
.	.	.	.	.	.	.	.	(16g\LL	ſa-	ſa-
.	.	.	.	.	.	.	.	16a\JJ)	.	.
4G\	.	4dd\	.	.	.	.	.	(16b-\LL	-git-	-git-
.	.	.	.	.	.	.	.	16cc\JJ)	.	.
.	.	.	.	8bb-\	.	.	.	(16dd\LL	-tis	-tis
.	.	.	.	.	.	.	.	16eeny\JJ)	.	.
!LO:TX:t=P:problem:kreska pseudotaktowa	!	!	!	!	!	!	!	!	!	!
2D/	.	4.dd\	.	4.aa\	8r	.	.	4ff\	tu-	tu-
.	.	.	.	.	(16d/LL	ſa-	ſa-	.	.	.
.	.	.	.	.	16e/JJ)	.	.	.	.	.
!	!	!	!	!	!	!	!	!LO:TX:t=P:problem:kreska pseudotaktowa	!	!
.	.	.	.	.	(16f/LL	-git-	-git-	4ff\	-is	-is
.	.	.	.	.	16g/JJ)	.	.	.	.	.
!	!	!LO:TX:t=P:problem:kreska pseudotaktowa	!	!LO:TX:t=P:problem:kreska pseudotaktowa	!	!	!	!	!	!
.	.	8dd\	.	8aa\	(16a\LL	-tis	-tis	.	.	.
.	.	.	.	.	16b-\JJ)	.	.	.	.	.
*	*	*	*	*	*custos:cc	*	*	*	*	*
!	!	!	!	!	!LO:LB:g=original	!	!	!	!	!
=65-	=65-	=65-	=65-	=65-	=65-	=65-	=65-	=65-	=65-	=65-
4AA/	6	8cc\L	.	4aa\	4cc\	tǔ-	tu-	4r	.	.
.	.	8ff\	.	.	.	.	.	.	.	.
4BB-/	.	8dd\	.	4ff\	8b-\	-is	-is	4ff\	con-	con-
.	.	8cc\J	.	.	8a\	con-	con-	.	.	.
2C/	4	4.cc\	.	8r	4.g/	-fi-	-fi-	4.ff\	-fi-	-fi-
.	3	.	.	8ccc\L	.	.	.	.	.	.
.	.	.	.	8ccc\	.	.	.	.	.	.
!	!	!LO:TX:t=P:problem:kreska pseudotaktowa	!	!LO:TX:t=P:problem:kreska pseudotaktowa	!	!	!	!LO:TX:t=P:problem:kreska pseudotaktowa	!	!
.	.	8cc\	.	8bb-X\J	(16a\LL	-ge	-ge	8ee\	-ge	-ge
.	.	.	.	.	16g\JJ)	.	.	.	.	.
*	*	*	*	*custos:aa	*	*	*	*	*	*
!	!	!	!	!LO:LB:g=original	!	!	!	!	!	!
=66-	=66-	=66-	=66-	=66-	=66-	=66-	=66-	=66-	=66-	=66-
2FF/	5	4cc\	.	4aa\	4f/	me	me	4ff\	me	me
.	6	4a/	.	4aa\	4f/	con-	con-	4dd\	con-	con-
4GG/	6	4g/	.	4bb-X\	4.e/	-fi-	-fi-	4.dd\	-fi-	-fi-
!	!	!LO:TX:t=P:problem:kreska pseudotaktowa	!	!	!	!	!	!	!	!
4AA/	.	4e/	.	4aa\	.	.	.	.	.	.
.	.	.	.	.	8e/	-ge	-ge	8cc#X\	-ge	-ge
*	*	*custos:f	*	*	*	*	*	*	*	*
!	!	!LO:LB:g=original	!	!	!	!	!	!	!	!
=67-	=67-	=67-	=67-	=67-	=67-	=67-	=67-	=67-	=67-	=67-
!LO:TX:t=P:problem:kreska pseudotaktowa	!	!	!	!	!	!	!	!LO:TX:t=P:problem:kreska pseudotaktowa	!	!
1D	.	1f#X	.	1aa	1d	me	me	1dd	me	me
=68-	=68-	=68-	=68-	=68-	=68-	=68-	=68-	=68-	=68-	=68-
!	!	!LO:TX:b:t=7.:mod=	!	!	!	!	!	!	!	!
2D/	.	00r	.	00r	1r	.	.	4r	.	.
.	.	.	.	.	.	.	.	4.dd\	mo-	mo-
2F#X\	#	.	.	.	.	.	.	.	.	.
.	.	.	.	.	.	.	.	8ccny\	-ri-	-ri-
.	.	.	.	.	.	.	.	8cc\	-ar	-ar
!	!	!	!	!	!	!	!	!LO:TX:t=P:problem:kreska pseudotaktowa	!	!
.	.	.	.	.	.	.	.	8dd\	pro	pro
=69-	=69-	=69-	=69-	=69-	=69-	=69-	=69-	=69-	=69-	=69-
!	!	!	!	!	!	!	!	!LO:N:acc=#	!	!
2G\	#	.	.	.	4r	.	.	4bn\	te	te
.	.	.	.	.	4.g/	mo-	mo-	8r	.	.
.	.	.	.	.	.	.	.	8b\	mi	mi
!LO:TX:t=P:problem:kreska pseudotaktowa	!	!	!	!	!	!	!	!	!	!
!LO:N:acc=#	!	!	!	!	!	!	!	!	!	!
2BBn/	.	.	.	.	.	.	.	2dd\	Je-	Je-
.	.	.	.	.	8f/	-ri-	-ri-	.	.	.
.	.	.	.	.	8f/	-ar	-ar	.	.	.
!	!	!	!	!	!LO:TX:t=P:problem:kreska pseudotaktowa	!	!	!	!	!
.	.	.	.	.	8g/	pro	pro	.	.	.
*	*	*	*	*	*	*	*	*custos:g	*	*
!	!	!	!	!	!	!	!	!LO:LB:g=original	!	!
=70-	=70-	=70-	=70-	=70-	=70-	=70-	=70-	=70-	=70-	=70-
1C	.	.	.	.	4e/	te	te	4g/	-sǔ,	-su,
.	.	.	.	.	8r	.	.	4.cc\	mo-	mo-
.	.	.	.	.	8e/	mi	mi	.	.	.
.	.	.	.	.	2g/	Je-	Je-	.	.	.
.	.	.	.	.	.	.	.	8b-y\	-ri-	-ri-
.	.	.	.	.	.	.	.	8b-\	-ar	-ar
!	!	!	!	!	!	!	!	!LO:TX:t=P:problem:kreska pseudotaktowa	!	!
.	.	.	.	.	.	.	.	8cc\	pro	pro
=71-	=71-	=71-	=71-	=71-	=71-	=71-	=71-	=71-	=71-	=71-
2Fny\	.	.	.	.	4f/	-sǔ	-su	4a\	te	te
*	*	*	*	*	*	*	*	*	*ij	*ij
.	.	.	.	.	4.f/	mo-	mo-	4.a\	mo-	mo-
!LO:TX:t=P:problem:kreska pseudotaktowa	!	!	!	!	!	!	!	!	!	!
2C/	6 4	.	.	.	.	.	.	.	.	.
.	5 3	.	.	.	8e/	-ri-	-ri-	8g/	-ri-	-ri-
.	.	.	.	.	8e/	-ar	-ar	8g/	-ar	-ar
!	!	!	!	!	!	!	!	!LO:TX:t=P:problem:kreska pseudotaktowa	!	!
.	.	.	.	.	8e/	pro	pro	8a\	pro	pro
*	*	*	*	*	*custos:e	*	*	*	*	*
!	!	!	!	!	!LO:LB:g=original	!	!	!	!	!
=72-	=72-	=72-	=72-	=72-	=72-	=72-	=72-	=72-	=72-	=72-
2D/	9	0r	.	0r	4e/	te	te	4.f/	te	te
*	*	*	*	*	*	*	*	*	*Xij	*Xij
.	8	.	.	.	4d/	mi	mi	.	.	.
.	.	.	.	.	.	.	.	8e/	mi	mi
!	!	!	!	!	!	!	!	!LO:TX:t=P:problem:kreska pseudotaktowa	!	!
4GG/	6	.	.	.	(4.d/	Je-	Je-	2e/	Je-	Je-
.	5	.	.	.	.	.	.	.	.	.
4AA/	.	.	.	.	.	.	.	.	.	.
!	!	!	!	!	!LO:SIC:s=8c#)	!	!	!	!	!
.	.	.	.	.	8c#X/	.	.	.	.	.
=73-	=73-	=73-	=73-	=73-	=73-	=73-	=73-	=73-	=73-	=73-
2D/	#	.	.	.	4d/)	-ſǔ	-ſu	4f#X/	-ſǔ	-ſu
.	.	.	.	.	8a\	dǔl-	dul-	2r	.	.
.	.	.	.	.	8b-\	-ce	-ce	.	.	.
!LO:TX:t=P:problem:kreska pseudotaktowa	!	!	!	!	!	!	!	!	!	!
2AA/	.	.	.	.	2cc\	bo-	bo-	.	.	.
.	.	.	.	.	.	.	.	8e/	dǔl-	dul-
!	!	!	!	!	!	!	!	!LO:TX:t=P:problem:kreska pseudotaktowa	!	!
.	.	.	.	.	.	.	.	8fny/	-ce	-ce
=74-	=74-	=74-	=74-	=74-	=74-	=74-	=74-	=74-	=74-	=74-
2GG/	.	1r	.	1r	4b-\	-num	-num	8g/	bo-	bo-
.	.	.	.	.	.	.	.	8g/	-nǔm	-num
.	.	.	.	.	8b-\	dǔl-	dul-	8g/	dǔl-	dul-
.	.	.	.	.	8cc\	-ce	-ce	8a\	-ce	-ce
!	!	!	!	!	!	!	!	!LO:LB:g=original	!	!
4.GG/	.	.	.	.	8dd\	bo-	bo-	8b-\	bo-	bo-
.	.	.	.	.	8cc\	-nǔm	-num	8a\	-num	-num
.	.	.	.	.	8b-\	dǔl-	dul-	8g/	dǔl-	dul-
!LO:TX:t=P:problem:kreska pseudotaktowa	!	!	!	!	!	!	!	!LO:TX:t=P:problem:kreska pseudotaktowa	!	!
8C/	.	.	.	.	8a\	-cis	-cis	8g/	-cis	-cis
*custos:D	*	*	*	*	*	*	*	*	*	*
!LO:LB:g=original	!	!	!	!	!	!	!	!	!	!
=75-	=75-	=75-	=75-	=75-	=75-	=75-	=75-	=75-	=75-	=75-
2D/	4	2r	.	2r	2a\	Je-	Je-	(4.g/	Je-	Je-
.	3	.	.	.	.	.	.	8f#X/)	.	.
!LO:TX:t=P:problem:kreska pseudotaktowa	!	!	!	!	!	!	!	!	!	!
2GG/	.	4r	.	4r	4b-\	-ſǔ.	-ſu.	4g/	-ſǔ	-ſu.
!	!	!LO:TX:t=P:problem:kreska pseudotaktowa	!	!LO:TX:t=P:problem:kreska pseudotaktowa	!	!	!	!	!	!
.	.	[4gg\	.	[4bb-X\	4r	.	.	4r	.	.
=76-	=76-	=76-	=76-	=76-	=76-	=76-	=76-	=76-	=76-	=76-
!	!	!	!	!	!	!	!	!LO:TX:b:t=2.:mod=	!	!
2D/	6 4	8gg\L]	.	8bb-\L]	0r	.	.	0r	.	.
.	5 3	8ff\J	.	8aa\J	.	.	.	.	.	.
.	.	[4ff\	.	[4aa\	.	.	.	.	.	.
2E-X\	4 9	8ff\]L	.	8aa\L]	.	.	.	.	.	.
.	3 8	8ee-X\J	.	8gg\J	.	.	.	.	.	.
!	!	!LO:TX:t=P:problem:kreska pseudotaktowa	!	!LO:TX:t=P:problem:kreska pseudotaktowa	!	!	!	!	!	!
.	.	[4ee-X\	.	4gg\	.	.	.	.	.	.
=77-	=77-	=77-	=77-	=77-	=77-	=77-	=77-	=77-	=77-	=77-
2BB-y/	4	8ee-\L]	.	4.ff\	.	.	.	.	.	.
.	3	8dd\J	.	.	.	.	.	.	.	.
.	.	[4dd\	.	.	.	.	.	.	.	.
.	.	.	.	8ff\	.	.	.	.	.	.
!LO:TX:t=P:problem:kreska pseudotaktowa	!	!	!	!	!	!	!	!	!	!
2C/	-9	8dd\L]	.	4.ee-X\	.	.	.	.	.	.
.	8	8cc\J	.	.	.	.	.	.	.	.
!	!	!LO:TX:t=P:problem:kreska pseudotaktowa nad półnutą (?)	!	!	!	!	!	!	!	!
.	.	2cc\	.	.	.	.	.	.	.	.
!	!	!	!	!LO:TX:t=P:problem:kreska pseudotaktowa	!	!	!	!	!	!
.	.	.	.	8ee-\	.	.	.	.	.	.
*	*	*	*	*	*custos:cc	*	*	*	*	*
!	!	!	!	!	!LO:LB:g=original	!	!	!	!	!
=78-	=78-	=78-	=78-	=78-	=78-	=78-	=78-	=78-	=78-	=78-
4FF/	6	.	.	2dd\	2r	.	.	2r	.	.
.	5	.	.	.	.	.	.	.	.	.
!	!	!LO:N:acc=#	!	!	!	!	!	!	!	!
4GG/	.	4bn\	.	.	.	.	.	.	.	.
2C/	-	4cc\	.	4ee-X\	4r	.	.	4r	.	.
!	!	!LO:TX:t=P:problem:kreska pseudotaktowa	!	!LO:TX:t=P:problem:kreska pseudotaktowa	!LO:TX:t=P:problem:kreska pseudotaktowa:między nutą a kropką	!	!	!LO:TX:t=P:problem:kreska pseudotaktowa:między nutą a kropką	!	!
.	.	4r	.	4r	[y4cc\	mo-	mo-	4.ee-X\	mo-	mo-
=79-	=79-	=79-	=79-	=79-	=79-	=79-	=79-	=79-	=79-	=79-
!	!	!	!	!	!LO:MO:mod=!null:null	!	!	!	!	!
!	!	!	!	!	!LO:N:xstem:cue	!	!	!	!	!
2GG/	.	2r	.	4r	8cc\]	.	.	.	.	.
.	.	.	.	.	8b-\	-ri-	-ri-	8dd\	-ri-	-ri-
.	.	.	.	4.gg\	4b-\	-ar	-ar	4dd\	-ar	-ar
!LO:TX:t=P:problem:kreska pseudotaktowa	!	!	!	!	!	!	!	!	!	!
2D/	6	4.d/	.	.	4.b-\	mo-	mo-	4.dd\	mo-	mo-
.	.	.	.	8ff\	.	.	.	.	.	.
.	.	.	.	2ff\	.	.	.	.	.	.
!	!	!LO:TX:t=P:problem:kreska pseudotaktowa	!	!	!LO:TX:t=P:problem:kreska pseudotaktowa	!	!	!LO:TX:t=P:problem:kreska pseudotaktowa	!	!
.	.	8e/	.	.	8b-\	-ri-	-ri-	8dd\	-ri-	-ri-
=80-	=80-	=80-	=80-	=80-	=80-	=80-	=80-	=80-	=80-	=80-
4D\	.	4fny/	.	.	4.b-\	-ar	-ar	4dd\	-ar	-ar
4Eny\	.	8e/L	.	4gg\	.	.	.	4cc\	pro	pro
.	.	8d/J	.	.	8b-\	pro	pro	.	.	.
!	!	!LO:TX:t=P:problem:kreska pseudotaktowa	!	!	!	!	!	!LO:TX:t=P:problem:kreska pseudotaktowa:między nutą a kropką	!	!
2F\	4	2c/	.	4.aa\	4b-\	te	te	2.cc\	te	te
.	3	.	.	.	2a\	mi	mi	.	.	.
!	!	!	!	!LO:TX:t=P:problem:kreska pseudotaktowa	!	!	!	!	!	!
.	.	.	.	8bb-\	.	.	.	.	.	.
*	*	*custos:cc	*	*	*	*	*	*	*	*
!	!	!LO:LB:g=original	!	!	!	!	!	!	!	!
=81-	=81-	=81-	=81-	=81-	=81-	=81-	=81-	=81-	=81-	=81-
4.AA/	6	4r	.	2.ccc\	.	.	.	.	.	.
.	.	2cc\	.	.	(2f/	Je-	Je-	4a\	mi	mi
8BB-/	.	.	.	.	.	.	.	.	.	.
!	!	!	!	!	!	!	!	!LO:TX:t=P:problem:kreska pseudotaktowa	!	!
!LO:TX:t=P:problem:kreska pseudotaktowa	!	!	!	!	!	!	!	!	!	!
2C/	4	.	.	.	.	.	.	2g/	Je-	Je-
!	!	!LO:TX:t=P:problem:kreska pseudotaktowa	!	!LO:TX:t=P:problem:kreska pseudotaktowa	!LO:SIC:s=4e)	!	!	!	!	!
.	3	4cc\	.	4ccc\	4e/	.	.	.	.	.
*	*	*	*	*	*	*	*	*custos:a	*	*
!	!	!	!	!	!	!	!	!LO:LB:g=original	!	!
=82-	=82-	=82-	=82-	=82-	=82-	=82-	=82-	=82-	=82-	=82-
2FF/	.	4cc\	.	4aa\	4f/)	-ſǔ	-ſu	4a\	-ſǔ	-ſu
.	.	4r	.	4r	4.f/	mo-	mo-	4.a\	mo-	mo-
!	!	!LO:TX:t=P:problem:kreska pseudotaktowa	!	!LO:TX:t=P:problem:kreska pseudotaktowa	!	!	!	!	!	!
2C/	6 4	2r	.	2r	.	.	.	.	.	.
.	5 3	.	.	.	8e/	-ri-	-ri-	8g/	-ri-	-ri-
.	.	.	.	.	8e/	-ar	-ar	8g/	-ar	-ar
!	!	!	!	!	!	!	!	!LO:TX:t=P:problem:kreska pseudotaktowa	!	!
.	.	.	.	.	8e/	pro	pro	8a\	pro	pro
*	*	*	*	*custos:ff	*	*	*	*	*	*
!	!	!	!	!LO:LB:g=original	!	!	!	!	!	!
=83-	=83-	=83-	=83-	=83-	=83-	=83-	=83-	=83-	=83-	=83-
2D/	9	4r	.	4r	(4e/	te	te	2fny/	te	te
.	8	4.dd\	.	4.ff\	4d/)	.	.	.	.	.
.	6	.	.	.	.	.	.	.	.	.
2AA/	5 #	.	.	.	4r	.	.	4r	.	.
.	.	8cc#X\L	.	8eeny\L	.	.	.	.	.	.
.	.	8cc#X\	.	8ee\	4e/	pro	pro	4a\	pro	pro
!	!	!LO:TX:t=P:problem:kreska pseudotaktowa	!	!LO:TX:t=P:problem:kreska pseudotaktowa	!	!	!	!	!	!
.	.	8dd\J	.	8ff\J	.	.	.	.	.	.
*	*	*	*	*	*custos:e	*	*	*	*	*
!	!	!	!	!	!LO:LB:g=original	!	!	!	!	!
=84-	=84-	=84-	=84-	=84-	=84-	=84-	=84-	=84-	=84-	=84-
2GG/	6	4.eeny\	.	4.gg\	4.e/	te	te	4.b-\	te	te
.	5	8dd\	.	8ff\	8e/	mi	mi	8dd\	mi	mi
!LO:TX:t=P:problem:kreska pseudotaktowa	!	!	!	!	!	!	!	!	!	!
2AA/	4	4.dd\	.	2ee\	2e/	Je-	Je-	2a\	Je-	Je-
.	3	8cc#X\	.	.	.	.	.	.	.	.
*custos:D	*	*	*	*	*	*	*	*	*	*
!LO:PB:g=original	!	!	!	!	!	!	!	!	!	!
=85-	=85-	=85-	=85-	=85-	=85-	=85-	=85-	=85-	=85-	=85-
*M3/2	*	*M3/2	*	*M3/2	*M3/2	*	*	*M3/2	*	*
!LO:TX:t=P:problem:kreska pseudotaktowa	!	!	!	!	!	!	!	!	!	!
!LO:TX:b:B:t=Allegro.:mod=	!	!	!	!	!	!	!	!	!	!
1.D	.	2dd\	.	2ff#X\	2d/	-ſǔ	-ſu	2a\	-ſǔ	-ſu
.	.	2r	.	2r	2f/	tra-	tra-	2r	.	.
.	.	2r	.	2r	2f/	-he	-he	2r	.	.
=86-	=86-	=86-	=86-	=86-	=86-	=86-	=86-	=86-	=86-	=86-
!	!	!LO:TX:b:t=8.:mod=	!	!LO:TX:b:t=8.:mod=	!	!	!	!LO:MO:mod=1.r	!	!
1.C	.	00.r	.	00.r	(2g/	me	me	1r	.	.
.	.	.	.	.	2f/)	.	.	.	.	.
!	!	!	!	!	!	!	!	!LO:MO:null:mod=.	!	!
.	.	.	.	.	2g/	poſt	poſt	2r	.	.
=87-	=87-	=87-	=87-	=87-	=87-	=87-	=87-	=87-	=87-	=87-
!	!	!	!	!	!	!	!	!LO:TX:t=P:problem:brak pauzy	!	!
1F	.	.	.	.	2a\	te	te	2ryy	.	.
.	.	.	.	.	2a\	tra-	tra-	2cc\	tra-	tra-
2E\	.	.	.	.	2a\	-he	-he	2cc\	-he	-he
=88-	=88-	=88-	=88-	=88-	=88-	=88-	=88-	=88-	=88-	=88-
!	!	!	!	!	!LO:N:acc=#	!	!	!	!	!
1D	6 #	.	.	.	(2bn\	me	me	(2dd\	me	me
.	.	.	.	.	2a\)	.	.	2cc\)	.	.
!	!	!	!	!	!LO:TX:t=P:problem:kreska pseudotaktowa	!	!	!LO:TX:t=P:problem:kreska pseudotaktowa	!	!
!LO:TX:t=P:problem:kreska pseudotaktowa	!	!	!	!	!LO:N:acc=#	!	!	!	!	!
!	!	!	!	!	!LO:SIC:s=2b	!	!	!	!	!
2G\	.	.	.	.	2bn\	poſt	poſt	2dd\	poſt	poſt
*	*	*	*	*	*	*	*	*custos:ee	*	*
!	!	!	!	!	!	!	!	!LO:LB:g=original	!	!
=89-	=89-	=89-	=89-	=89-	=89-	=89-	=89-	=89-	=89-	=89-
1.C	-	.	.	.	2cc\	te	te	2ee-X\	te	te
.	.	.	.	.	2cc\	in-	in-	2ee-X\	in-	in-
.	.	.	.	.	2b-y\	-ter	-ter	2dd\	-ter	-ter
*	*	*	*	*	*custos:a	*	*	*	*	*
!	!	!	!	!	!LO:LB:g=original	!	!	!	!	!
=90-	=90-	=90-	=90-	=90-	=90-	=90-	=90-	=90-	=90-	=90-
!	!	!LO:N:vis=00	!	!LO:N:vis=00	!	!	!	!	!	!
2F\	.	00.r	.	00.r	1a	flo-	flo-	1cc	flo-	flo-
2F\	.	.	.	.	.	.	.	.	.	.
!	!	!	!	!	!LO:TX:t=P:problem:kreska pseudotaktowa	!	!	!	!	!
2E-X\	.	.	.	.	2a\	-res	-res	2cc\	-res	-res
=91-	=91-	=91-	=91-	=91-	=91-	=91-	=91-	=91-	=91-	=91-
1.D	.	.	.	.	2r	.	.	2r	.	.
.	.	.	.	.	2dd\	in-	in-	2ff\	in-	in-
.	.	.	.	.	2dd\	-ter	-ter	2ff\	-ter	-ter
=92-	=92-	=92-	=92-	=92-	=92-	=92-	=92-	=92-	=92-	=92-
1E-X	.	.	.	.	(2g/	flo-	flo-	1ee-X	flo-	flo-
.	.	.	.	.	2a\)	.	.	.	.	.
2BB-/	.	.	.	.	2b-\	-res	-res	2dd\	-res	-res
=93-	=93-	=93-	=93-	=93-	=93-	=93-	=93-	=93-	=93-	=93-
1F	.	.	.	.	1b-	po-	po-	1cc	po-	po-
!LO:TX:t=P:problem:kreska pseudotaktowa	!	!	!	!	!	!	!	!LO:SIC:v:s=2cc	!	!
2FF/	.	.	.	.	2a\	-ne	-ne	2b-\	-ne	-ne
=94-	=94-	=94-	=94-	=94-	=94-	=94-	=94-	=94-	=94-	=94-
2BB-/	.	2r	.	2r	1b-	me	me	1b-	me	me
2B-\	.	2dd\	.	2ffny\	.	.	.	.	.	.
!	!	!LO:TX:t=P:problem:kreska pseudotaktowa	!	!	!	!	!	!	!	!
2A\	.	2dd\	.	2ff\	2r	.	.	2r	.	.
=95-	=95-	=95-	=95-	=95-	=95-	=95-	=95-	=95-	=95-	=95-
!	!	!	!	!	!LO:TX:b:t=8.:mod=	!	!	!LO:N:vis=00	!	!
!	!	!	!	!	!LO:N:vis=00	!	!	!	!	!
1G	.	2ee\	.	2gg\	00.r	.	.	00.r	.	.
.	.	2dd\	.	2ff\	.	.	.	.	.	.
!LO:TX:t=P:problem:kreska pseudotaktowa	!	!LO:TX:t=P:problem:kreska pseudotaktowa	!	!	!	!	!	!	!	!
2c\	.	2ee\	.	2gg\	.	.	.	.	.	.
*custos:F	*	*custos:ff	*	*	*	*	*	*	*	*
!LO:LB:g=original	!	!LO:LB:g=original	!	!	!	!	!	!	!	!
=96-	=96-	=96-	=96-	=96-	=96-	=96-	=96-	=96-	=96-	=96-
!LO:TX:t=P:problem:kreska pseudotaktowa	!	!	!	!	!	!	!	!	!	!
1.F	.	2ff\	.	2aa\	.	.	.	.	.	.
.	.	2ff\	.	2aa\	.	.	.	.	.	.
!	!	!LO:TX:t=P:problem:kreska pseudotaktowa	!	!LO:TX:t=P:problem:kreska pseudotaktowa	!	!	!	!	!	!
.	.	2ee\	.	2gg\	.	.	.	.	.	.
=97-	=97-	=97-	=97-	=97-	=97-	=97-	=97-	=97-	=97-	=97-
2B-\	.	2dd\	.	2ff\	.	.	.	.	.	.
1G	.	2gg\	.	2bb-X\	.	.	.	.	.	.
.	.	2ff\	.	2aa\	.	.	.	.	.	.
=98-	=98-	=98-	=98-	=98-	=98-	=98-	=98-	=98-	=98-	=98-
2c\	.	2ee\	.	2gg\	.	.	.	.	.	.
!LO:TX:t=P:problem:kreska pseudotaktowa	!	!	!	!	!	!	!	!	!	!
1A	.	2.aa\	.	2.ccc\	.	.	.	.	.	.
!	!	!LO:TX:t=P:problem:kreska pseudotaktowa	!	!LO:TX:t=P:problem:kreska pseudotaktowa	!	!	!	!	!	!
.	.	4aa\	.	4ccc\	.	.	.	.	.	.
*	*	*	*	*custos:bb	*	*	*	*	*	*
!	!	!	!	!LO:LB:g=original	!	!	!	!	!	!
=99-	=99-	=99-	=99-	=99-	=99-	=99-	=99-	=99-	=99-	=99-
!	!	!	!	!	!LO:N:vis=00	!	!	!LO:N:vis=0	!	!
1B-	.	2gg\	.	2bb-X\	00.r	.	.	0.r	.	.
!	!	!LO:TX:t=P:problem:kreska pseudotaktowa	!	!	!	!	!	!	!	!
.	.	1ff	.	1aa	.	.	.	.	.	.
2F\	.	.	.	.	.	.	.	.	.	.
=100-	=100-	=100-	=100-	=100-	=100-	=100-	=100-	=100-	=100-	=100-
!LO:TX:t=P:problem:kreska pseudotaktowa	!	!	!	!	!	!	!	!	!	!
1.C	4	1ff	.	1gg	.	.	.	.	.	.
.	3	2ee\	.	2gg\	.	.	.	.	.	.
=101-	=101-	=101-	=101-	=101-	=101-	=101-	=101-	=101-	=101-	=101-
1F	.	1ff	.	1aa	.	.	.	2r	.	.
.	.	.	.	.	.	.	.	2cc\	tra-	tra-
2Eny\	.	2r	.	2r	.	.	.	2cc\	-he	-he
=102-	=102-	=102-	=102-	=102-	=102-	=102-	=102-	=102-	=102-	=102-
!	!	!LO:TX:b:t=6.:mod=	!	!LO:TX:b:t=6.:mod=	!	!	!	!	!	!
!	!	!LO:N:vis=00	!	!LO:N:vis=00	!	!	!	!	!	!
1D	.	00.r	.	00.r	.	.	.	(2dd\	me	me
.	.	.	.	.	.	.	.	2cc\)	.	.
!	!	!	!	!	!	!	!	!LO:TX:t=P:problem:kreska pseudotaktowa	!	!
2G\	.	.	.	.	.	.	.	2dd\	poſt	poſt
*	*	*	*	*	*	*	*	*custos:ee	*	*
!	!	!	!	!	!	!	!	!LO:LB:g=original	!	!
=103-	=103-	=103-	=103-	=103-	=103-	=103-	=103-	=103-	=103-	=103-
1C	.	.	.	.	2r	.	.	2ee-X\	te	te
.	.	.	.	.	2g/	tra-	tra-	2ee-\	in-	in-
2BB-/	.	.	.	.	2g/	-he	-he	2dd\	-ter	-ter
=104-	=104-	=104-	=104-	=104-	=104-	=104-	=104-	=104-	=104-	=104-
1AA	.	.	.	.	(2a\	me	me	2cc\	flo-	flo-
.	.	.	.	.	2g\)	.	.	2cc\	-res	-res
!LO:TX:t=P:problem:kreska pseudotaktowa	!	!	!	!	!	!	!	!	!	!
2D/	.	.	.	.	2a\	poſt	poſt	2r	.	.
*	*	*	*	*	*custos:b	*	*	*	*	*
!	!	!	!	!	!LO:LB:g=original	!	!	!	!	!
=105-	=105-	=105-	=105-	=105-	=105-	=105-	=105-	=105-	=105-	=105-
1.GG	.	.	.	.	2b-\	te	te	2r	.	.
.	.	.	.	.	2b-\	in-	in-	2dd\	in-	in-
.	.	.	.	.	2b-\	-ter	-ter	2dd\	-ter	-ter
=106-	=106-	=106-	=106-	=106-	=106-	=106-	=106-	=106-	=106-	=106-
!	!	!LO:N:vis=0	!	!LO:N:vis=0	!	!	!	!	!	!
1.C	.	0.r	.	0.r	1a	flo-	flo-	1cc	flo-	flo-
.	.	.	.	.	2g/	-res	-res	2b-\	-res	-res
=107-	=107-	=107-	=107-	=107-	=107-	=107-	=107-	=107-	=107-	=107-
1.D	4	.	.	.	1g	po-	po-	1a	po-	po-
.	3	.	.	.	2f#X/	-ne	-ne	2a\	-ne	-ne
=108-	=108-	=108-	=108-	=108-	=108-	=108-	=108-	=108-	=108-	=108-
!LO:TX:t=P:problem:kreska pseudotaktowa	!	!	!	!	!	!	!	!	!	!
1.GG	.	2r	.	2r	1g	me	me	1b-	me	me
.	.	2b-y/	.	2dd\	.	.	.	.	.	.
.	.	2b-/	.	2dd\	2r	.	.	2r	.	.
*custos:C	*	*	*	*	*	*	*	*	*	*
!LO:LB:g=original	!	!	!	!	!	!	!	!	!	!
=109-	=109-	=109-	=109-	=109-	=109-	=109-	=109-	=109-	=109-	=109-
!	!	!	!	!	!LO:N:vis=0	!	!	!LO:N:vis=0	!	!
1.C	.	1a	.	1cc	0.r	.	.	0.r	.	.
!	!	!LO:TX:t=P:problem:kreska pseudotaktowa	!	!	!	!	!	!	!	!
.	.	2g/	.	2b-/	.	.	.	.	.	.
=110-	=110-	=110-	=110-	=110-	=110-	=110-	=110-	=110-	=110-	=110-
1.D	.	1g	.	1a	.	.	.	.	.	.
!	!	!LO:TX:t=P:problem:kreska pseudotaktowa	!	!	!	!	!	!	!	!
.	.	2f#X/	.	2a/	.	.	.	.	.	.
*	*	*custos:g	*	*	*	*	*	*	*	*
!	!	!LO:LB:g=original	!	!	!	!	!	!	!	!
=111-	=111-	=111-	=111-	=111-	=111-	=111-	=111-	=111-	=111-	=111-
1GG	.	1g	.	1b-	2r	.	.	2r	.	.
.	.	.	.	.	(4g/	in-	in-	(4b-\	in-	in-
.	.	.	.	.	4fny/)	.	.	4a\)	.	.
!LO:TX:t=P:problem:kreska pseudotaktowa	!	!	!	!	!	!	!	!	!	!
2G\	.	2r	.	2r	(4g/	-ter	-ter	(4b-\	-ter	-ter
.	.	.	.	.	4f/)	.	.	4a\)	.	.
=112-	=112-	=112-	=112-	=112-	=112-	=112-	=112-	=112-	=112-	=112-
!	!	!LO:N:vis=00	!	!LO:N:vis=00	!	!	!	!	!	!
2c\	.	00.r	.	00.r	2e/	flo-	flo-	2g/	flo-	flo-
4c\	.	.	.	.	2e/	-res	-res	2g/	-res	-res
4B-\	.	.	.	.	.	.	.	.	.	.
!	!	!	!	!	!LO:TX:t=P:problem:kreska pseudotaktowa	!	!	!LO:TX:t=P:problem:kreska pseudotaktowa	!	!
4c\	.	.	.	.	2r	.	.	2r	.	.
4B-\	.	.	.	.	.	.	.	.	.	.
*	*	*	*	*	*custos:f	*	*	*custos:a	*	*
!	!	!	!	!	!LO:LB:g=original	!	!	!LO:LB:g=original	!	!
=113-	=113-	=113-	=113-	=113-	=113-	=113-	=113-	=113-	=113-	=113-
1A	.	.	.	.	2r	.	.	2r	.	.
.	.	.	.	.	(4f/	in-	in-	(4a\	in-	in-
.	.	.	.	.	4e/)	.	.	4g\)	.	.
!LO:TX:t=P:problem:kreska pseudotaktowa	!	!	!	!	!	!	!	!	!	!
2A\	.	.	.	.	(4f/	-ter	-ter	(4a\	-ter	-ter
!	!	!	!	!	!LO:TX:t=P:problem:kreska pseudotaktowa	!	!	!	!	!
.	.	.	.	.	4e/)	.	.	4g\)	.	.
=114-	=114-	=114-	=114-	=114-	=114-	=114-	=114-	=114-	=114-	=114-
1B-	.	.	.	.	4d/	flo-	flo-	4f/	flo-	flo-
.	.	.	.	.	4cny/	.	.	4e/	.	.
.	.	.	.	.	4d/	.	.	4f/	.	.
.	.	.	.	.	4e/	.	.	4g/	.	.
2F\	.	.	.	.	4f/	.	.	4a\	.	.
!	!	!	!	!	!LO:TX:t=P:problem:kreska pseudotaktowa	!	!	!	!	!
.	.	.	.	.	4a\	.	.	4cc\	.	.
=115-	=115-	=115-	=115-	=115-	=115-	=115-	=115-	=115-	=115-	=115-
2B-\	.	.	.	.	(4g/	-res	-res	(4b-\	-res	-res
.	.	.	.	.	4f/)	.	.	4a\)	.	.
2c\	.	.	.	.	2.f/	po-	po-	2.g/	po-	po-
2C/	.	.	.	.	.	.	.	.	.	.
.	.	.	.	.	4e/	-ne	-ne	4g/	-ne	-ne
=116-	=116-	=116-	=116-	=116-	=116-	=116-	=116-	=116-	=116-	=116-
!LO:TX:t=P:problem:kreska pseudotaktowa	!	!	!	!	!	!	!	!	!	!
1.F	.	2r	.	2r	1f	me	me	1a	me.	me.
.	.	4ff\	.	4aa\	.	.	.	.	.	.
.	.	4ee\	.	4gg\	.	.	.	.	.	.
.	.	4ff\	.	4aa\	2r	.	.	2r	.	.
!	!	!	!	!LO:TX:t=P:problem:kreska pseudotaktowa	!	!	!	!	!	!
.	.	4ee\	.	4gg\	.	.	.	.	.	.
=117-	=117-	=117-	=117-	=117-	=117-	=117-	=117-	=117-	=117-	=117-
!	!	!	!	!	!LO:TX:a:t=6.:mod=	!	!	!LO:TX:b:t=6.:mod=	!	!
!	!	!	!	!	!LO:N:vis=00	!	!	!LO:N:vis=00	!	!
2B-\	.	2dd\	.	2ff\	00.r	.	.	00.r	.	.
4B-\	.	2dd\	.	2ff\	.	.	.	.	.	.
4A\	.	.	.	.	.	.	.	.	.	.
!	!	!LO:TX:t=P:problem:kreska pseudotaktowa	!	!LO:TX:t=P:problem:kreska pseudotaktowa	!	!	!	!	!	!
4B-\	.	2r	.	2r	.	.	.	.	.	.
!LO:TX:t=P:problem:kreska pseudotaktowa	!	!	!	!	!	!	!	!	!	!
4A\	.	.	.	.	.	.	.	.	.	.
=118-	=118-	=118-	=118-	=118-	=118-	=118-	=118-	=118-	=118-	=118-
1.G	.	2r	.	2r	.	.	.	.	.	.
.	.	4gg\	.	4bb-X\	.	.	.	.	.	.
.	.	4ff\	.	4aa\	.	.	.	.	.	.
.	.	4gg\	.	4bb-X\	.	.	.	.	.	.
!	!	!LO:TX:t=P:problem:kreska pseudotaktowa	!	!LO:TX:t=P:problem:kreska pseudotaktowa	!	!	!	!	!	!
.	.	4ff\	.	4aa\	.	.	.	.	.	.
*custos:c	*	*	*	*custos:gg	*	*	*	*	*	*
!LO:LB:g=original	!	!	!	!LO:LB:g=original	!	!	!	!	!	!
=119-	=119-	=119-	=119-	=119-	=119-	=119-	=119-	=119-	=119-	=119-
1.c	.	4ee\	.	4gg\	.	.	.	.	.	.
.	.	4dd\	.	4ff\	.	.	.	.	.	.
.	.	4ee\	.	4gg\	.	.	.	.	.	.
.	.	4ccny\	.	4ee\	.	.	.	.	.	.
.	.	4dd\	.	4ff\	.	.	.	.	.	.
!	!	!LO:TX:t=P:problem:kreska pseudotaktowa	!	!LO:TX:t=P:problem:kreska pseudotaktowa	!	!	!	!	!	!
.	.	4ee\	.	4gg\	.	.	.	.	.	.
=120-	=120-	=120-	=120-	=120-	=120-	=120-	=120-	=120-	=120-	=120-
!LO:TX:t=P:problem:kreska pseudotaktowa	!	!	!	!	!	!	!	!	!	!
1.F	.	4ff\	.	4aa\	.	.	.	.	.	.
.	.	4ee\	.	4gg\	.	.	.	.	.	.
.	.	4ff\	.	4aa\	.	.	.	.	.	.
.	.	4ee\	.	4gg\	.	.	.	.	.	.
.	.	4dd\	.	4ff\	.	.	.	.	.	.
!	!	!LO:TX:t=P:problem:kreska pseudotaktowa	!	!LO:TX:t=P:problem:kreska pseudotaktowa	!	!	!	!	!	!
.	.	4cc\	.	4ee\	.	.	.	.	.	.
=121-	=121-	=121-	=121-	=121-	=121-	=121-	=121-	=121-	=121-	=121-
!	!	!	!	!	!LO:TX:b:i:t=Verte.:mod=	!	!	!LO:TX:b:i:t=Verte.:mod=	!	!
2B-\	.	2dd\	.	2ff\	0.r	.	.	0.r	.	.
1G	.	4ee\	.	4gg\	.	.	.	.	.	.
.	.	4dd\	.	4ff\	.	.	.	.	.	.
.	.	4ee\	.	4gg\	.	.	.	.	.	.
!	!	!LO:TX:t=P:problem:kreska pseudotaktowa	!	!	!	!	!	!	!	!
.	.	4dd\	.	4ff\	.	.	.	.	.	.
*	*	*custos:dd	*	*	*	*	*	*	*	*
!	!	!LO:LB:g=original	!	!	!	!	!	!	!	!
=122-	=122-	=122-	=122-	=122-	=122-	=122-	=122-	=122-	=122-	=122-
1A	.	1dd	.	1ee	.	.	.	.	.	.
!	!	!LO:TX:t=P:problem:kreska pseudotaktowa	!	!	!	!	!	!	!	!
2AA/	4	2cc#X\	.	2ee\	.	.	.	.	.	.
.	3	.	.	.	.	.	.	.	.	.
*	*	*	*	*	*custos:ff	*	*	*custos:dd	*	*
!	!	!	!	!	!LO:PB:g=original	!	!	!LO:PB:g=original	!	!
=123-	=123-	=123-	=123-	=123-	=123-	=123-	=123-	=123-	=123-	=123-
!LO:TX:t=P:problem:kreska pseudotaktowa	!	!	!	!	!	!	!	!	!	!
1.D	.	1dd	.	1ff	2r	.	.	2r	.	.
.	.	.	.	.	(4ff\	in-	in-	(4dd\	in-	in-
.	.	.	.	.	4eeny\)	.	.	4cc\)	.	.
!	!	!	!	!LO:TX:t=P:problem:kreska pseudotaktowa	!	!	!	!	!	!
.	.	2r	.	2r	(4ff\	-ter	-ter	(4dd\	-ter	-ter
!	!	!	!	!	!LO:TX:t=P:problem:kreska pseudotaktowa	!	!	!	!	!
.	.	.	.	.	4ee\)	.	.	4cc\)	.	.
=124-	=124-	=124-	=124-	=124-	=124-	=124-	=124-	=124-	=124-	=124-
!	!	!	!	!	!	!	!	!LO:N:acc=#	!	!
1.G	#	2r	.	2r	2dd\	flo-	flo-	2bn\	flo-	flo-
.	.	2.g/	.	4gg\	2dd\	-res	-res	2b\	-res	-res
.	.	.	.	4ff\	.	.	.	.	.	.
!	!	!	!	!	!LO:TX:t=P:problem:kreska pseudotaktowa	!	!	!	!	!
.	.	.	.	4gg\	2r	.	.	2r	.	.
.	.	4g/	.	4ff\	.	.	.	.	.	.
=125-	=125-	=125-	=125-	=125-	=125-	=125-	=125-	=125-	=125-	=125-
1.C	.	1g	.	1ee	2r	.	.	2r	.	.
.	.	.	.	.	(4ee\	in-	in-	(4cc\	in-	in-
.	.	.	.	.	4dd\)	.	.	4b-y\)	.	.
.	.	2g/	.	2gg\	(4ee\	-ter	-ter	(4cc\	-ter	-ter
.	.	.	.	.	4dd\)	.	.	4b-\)	.	.
=126-	=126-	=126-	=126-	=126-	=126-	=126-	=126-	=126-	=126-	=126-
1.F	.	2.a/	.	1ff	4cc\	flo-	flo-	4a\	flo-	flo-
.	.	.	.	.	4cc\	-res	-res	4a\	-res	-res
.	.	.	.	.	2.cc\	in-	in-	2.a\	in-	in-
.	.	4fny/	.	.	.	.	.	.	.	.
.	.	4g/	.	2ff\	.	.	.	.	.	.
.	.	4a/	.	.	4cc\	ter	ter	4a\	-ter	-ter
=127-	=127-	=127-	=127-	=127-	=127-	=127-	=127-	=127-	=127-	=127-
1BB-	.	1b-	.	2.ff\	1b-	flo-	flo-	1f	flo-	flo-
.	.	.	.	4gg\	.	.	.	.	.	.
!LO:TX:t=P:problem:kreska pseudotaktowa	!	!	!	!	!	!	!	!	!	!
2F\	.	2ccny\	.	4aa\	2a\	-res	-res	2f/	-res	-res
!	!	!	!	!LO:TX:t=P:problem:kreska pseudotaktowa	!	!	!	!	!	!
.	.	.	.	4bb-\	.	.	.	.	.	.
*	*	*	*	*custos:ccc	*	*	*	*	*	*
!	!	!	!	!LO:LB:g=original	!	!	!	!	!	!
=128-	=128-	=128-	=128-	=128-	=128-	=128-	=128-	=128-	=128-	=128-
1.C	4	1cc	.	1ccc	1g	po-	po-	1f/	po-	po-
.	3	.	.	.	.	.	.	.	.	.
.	.	2cc\	.	2ccc\	2g/	-ne	-ne	2e/	-ne	-ne
=129-	=129-	=129-	=129-	=129-	=129-	=129-	=129-	=129-	=129-	=129-
1.FF	.	1.cc	.	1.aa	1.a	me	me	1.f	me	me
1.ryy	.	1.ryy	.	1.ryy	1.ryy	.	.	1.ryy	.	.
*	*	*	*	*	*custos:dd	*	*	*	*	*
!	!	!	!	!	!LO:LB:g=original	!	!	!	!	!
=130-	=130-	=130-	=130-	=130-	=130-	=130-	=130-	=130-	=130-	=130-
!!!OMD:
!!!OMD-mod: Adagio
*M2/2	*	*M2/2	*	*M2/2	*M2/2	*	*	*M2/2	*	*
*met(C|)	*	*met(C)	*	*met(C)	*met(C)	*	*	*met(C|)	*	*
*mmet(c|)	*	*mmet(c|)	*	*mmet(c|)	*mmet(c|)	*	*	*mmet(c|)	*	*
!LO:TX:b:B:t=Adagio.:mod=	!	!LO:TX:b:t=11.:mod=	!	!LO:TX:a:t=10.:mod=	!	!	!	!	!	!
2F\	.	00r	.	00r	1r	.	.	4r	.	.
.	.	.	.	.	.	.	.	8a\	Qǔi-	Qui-
.	.	.	.	.	.	.	.	8a\	-a	-a
*	*	*	*	*	*	*	*	*custos:a	*	*
!	!	!	!	!	!	!	!	!LO:LB:g=original	!	!
[2BB-/	7	.	.	.	.	.	.	4.a\	Lan-	lan-
!	!	!	!	!	!	!	!	!LO:TX:t=P:problem:kreska pseudotaktowa	!	!
.	6	.	.	.	.	.	.	8g\	-gǔe-	-gue-
=131-	=131-	=131-	=131-	=131-	=131-	=131-	=131-	=131-	=131-	=131-
2BB-/]	.	.	.	.	4r	.	.	2g/	-o	-o
.	.	.	.	.	8dd\	Qui-	Qui-	.	.	.
.	.	.	.	.	8dd\	-a	-a	.	.	.
!LO:TX:t=P:problem:kreska pseudotaktowa	!	!	!	!	!	!	!	!LO:TX:t=P:problem:kreska pseudotaktowa	!	!
[2E-X\	7	.	.	.	4.dd\	lan-	lan-	[2g/	Lan-	lan-
.	6	.	.	.	8cc\	-gue-	-gue-	.	.	.
*custos:E	*	*	*	*	*	*	*	*	*	*
!LO:LB:g=original	!	!	!	!	!	!	!	!	!	!
=132-	=132-	=132-	=132-	=132-	=132-	=132-	=132-	=132-	=132-	=132-
2E-X\]	.	.	.	.	2cc\	-o	-o	4g/]	.	.
.	.	.	.	.	.	.	.	4a\	.	.
2D/	6	.	.	.	4.dd\	lan-	lan-	4b-\	.	.
!	!	!	!	!	!	!	!	!LO:TX:t=P:problem:kreska pseudotaktowa nad półnutą (?)	!	!
.	5	.	.	.	.	.	.	2a\	-gue-	-gue-
.	.	.	.	.	8cc\	-gue-	-gue-	.	.	.
=133-	=133-	=133-	=133-	=133-	=133-	=133-	=133-	=133-	=133-	=133-
!LO:TX:t=P:problem:kreska pseudotaktowa	!	!	!	!	!	!	!	!	!	!
1D	6 3	.	.	.	2b-\	-o	-o	.	.	.
.	5 4	.	.	.	.	.	.	2g/	-o	-o
!	!	!	!	!	!LO:TX:t=P:problem:kreska pseudotaktowa	!	!	!	!	!
.	X 3	.	.	.	2a\	pro	pro	.	.	.
!	!	!	!	!	!	!	!	!LO:TX:t=P:problem:kreska pseudotaktowa	!	!
.	.	.	.	.	.	.	.	4f#X/	pro	pro
=134-	=134-	=134-	=134-	=134-	=134-	=134-	=134-	=134-	=134-	=134-
2GG/	.	00r	.	00r	4g/	te	te	4g/	te	te
.	.	.	.	.	8g/	qui-	qui-	4r	.	.
.	.	.	.	.	8g/	-a	-a	.	.	.
!	!	!	!	!	!	!	!	!LO:TX:t=P:problem:kreska pseudotaktowa	!	!
[2D/	4	.	.	.	4.g/	lan-	lan-	2r	.	.
.	3	.	.	.	8f/	-gue-	-gue-	.	.	.
=135-	=135-	=135-	=135-	=135-	=135-	=135-	=135-	=135-	=135-	=135-
2D/]	6	.	.	.	2f/	-o	-o	4r	.	.
.	.	.	.	.	.	.	.	8b-\	qǔi-	qui-
.	.	.	.	.	.	.	.	8b-\	-a	-a
*	*	*	*	*	*	*ij	*ij	*	*	*
!LO:TX:t=P:problem:kreska pseudotaktowa	!	!	!	!	!	!	!	!	!	!
[2C/	7 3	.	.	.	4e/	lan-	lan-	4b-\	lan-	lan-
!	!	!	!	!	!LO:TX:t=P:problem:kreska pseudotaktowa	!	!	!LO:TX:t=P:problem:kreska pseudotaktowa	!	!
.	6 4	.	.	.	4f/	-gue-	-gue-	4a\	-gǔe-	-gue-
=136-	=136-	=136-	=136-	=136-	=136-	=136-	=136-	=136-	=136-	=136-
2C/]	4	.	.	.	4.f/	-o	-o	4.g/	-o	-o
*	*	*	*	*	*	*Xij	*Xij	*	*	*
.	3	.	.	.	8e/	pro	pro	8g/	pro	pro
*	*	*	*	*	*custos:f	*	*	*	*	*
!	!	!	!	!	!LO:LB:g=original	!	!	!	!	!
4FF/	.	.	.	.	4f/	te,	te,	4a\	te	te,
!	!	!	!	!	!	!	!	!LO:TX:t=P:problem:kreska pseudotaktowa	!	!
[4F\	.	.	.	.	8r	.	.	4r	.	.
!	!	!	!	!	!LO:TX:t=P:problem:kreska pseudotaktowa	!	!	!	!	!
.	.	.	.	.	8f/	tǔ	tu	.	.	.
=137-	=137-	=137-	=137-	=137-	=137-	=137-	=137-	=137-	=137-	=137-
4F\]	2	.	.	.	4.g/	fons	fons	2r	.	.
4Eny\	.	.	.	.	.	.	.	.	.	.
.	.	.	.	.	8g/	tu	tu	.	.	.
4.F\	.	.	.	.	8a\	vi-	vi-	4r	.	.
.	.	.	.	.	8f/	-ta	-ta	.	.	.
*	*	*	*	*	*	*ij	*ij	*	*	*
!	!	!	!	!	!LO:TX:t=P:problem:kreska pseudotaktowa	!	!	!LO:TX:t=P:problem:kreska pseudotaktowa	!	!
.	.	.	.	.	4a\	tǔ	tu	4cc\	tǔ	tu
!LO:TX:t=P:problem:kreska pseudotaktowa	!	!	!	!	!	!	!	!	!	!
8E\	.	.	.	.	.	.	.	.	.	.
*	*	*	*	*	*	*	*	*custos:dd	*	*
!	!	!	!	!	!	!	!	!LO:LB:g=original	!	!
=138-	=138-	=138-	=138-	=138-	=138-	=138-	=138-	=138-	=138-	=138-
!	!	!	!	!	!LO:N:acc=#	!	!	!	!	!
4D\	#6	0r	.	0r	4.bn\	fons	fons	4.dd\	fons	fons
4G\	#	.	.	.	.	.	.	.	.	.
.	.	.	.	.	8b\	tu	tu	8dd\	tǔ	tu
2C/	-	.	.	.	8cc\	vi-	vi-	8ee-X\	vi-	vi-
.	.	.	.	.	8g/	-ta	-ta	8cc\	-la	-la
*	*	*	*	*	*	*Xij	*Xij	*	*	*
!	!	!	!	!	!	!	!	!LO:TX:t=P:problem:kreska pseudotaktowa	!	!
.	.	.	.	.	4cc\	tu	tu	4ee-X\	tǔ	tu
=139-	=139-	=139-	=139-	=139-	=139-	=139-	=139-	=139-	=139-	=139-
!	!	!	!	!	!	!	!	!LO:N:vis=8	!	!
4C/	.	.	.	.	4cc\	bo-	bo-	4ee-X\	bo-	bo-
.	.	.	.	.	.	.	.	.	-ni-	-ni-
4D/	.	.	.	.	8b\	-ni-	-ni-	8dd\	.	.
.	.	.	.	.	8a\	-tas	-tas	8cc\	-tas	-tas
4E-X\	.	.	.	.	(8g\L	in-	in-	(8b-\L	in-	in-
.	.	.	.	.	8a\J)	.	.	8cc\J)	.	.
!LO:TX:t=P:problem:kreska pseudotaktowa	!	!	!	!	!	!	!	!LO:TX:t=P:problem:kreska pseudotaktowa	!	!
4BB-/	.	.	.	.	4b-y\	-fi-	-fi-	4dd\	-fi-	-fi-
=140-	=140-	=140-	=140-	=140-	=140-	=140-	=140-	=140-	=140-	=140-
2F\	4	1r	.	2r	4.b-\	-ni-	-ni-	2cc\	-ni-	-ni-
.	3	.	.	.	8a\	.	.	.	.	.
4BB-/	.	.	.	4r	4b-\	-ta	-ta	4dd\	-ta	-ta
!	!	!	!	!LO:TX:t=P:problem:kreska pseudotaktowa	!	!	!	!	!	!
8B-\L	.	.	.	4ff\	4r	.	.	4r	.	.
8A\J	.	.	.	.	.	.	.	.	.	.
=141-	=141-	=141-	=141-	=141-	=141-	=141-	=141-	=141-	=141-	=141-
4G\	.	2r	.	4.gg\	00r	.	.	0r	.	.
4c\	.	.	.	.	.	.	.	.	.	.
.	.	.	.	8gg\	.	.	.	.	.	.
4.F\	.	4r	.	8aa\L	.	.	.	.	.	.
.	.	.	.	8ff\	.	.	.	.	.	.
!	!	!LO:TX:t=P:problem:kreska pseudotaktowa	!	!	!	!	!	!	!	!
.	.	4cc\	.	8aa\	.	.	.	.	.	.
!LO:TX:t=P:problem:kreska pseudotaktowa	!	!	!	!LO:TX:t=P:problem:kreska pseudotaktowa	!	!	!	!	!	!
8Eny\	.	.	.	8gg\J	.	.	.	.	.	.
*custos:D	*	*	*	*	*	*	*	*	*	*
!LO:LB:g=original	!	!	!	!	!	!	!	!	!	!
=142-	=142-	=142-	=142-	=142-	=142-	=142-	=142-	=142-	=142-	=142-
4D/	.	4.dd\	.	4ff\	.	.	.	.	.	.
4G\	7	.	.	4ff\	.	.	.	.	.	.
.	5	8dd\	.	.	.	.	.	.	.	.
[2C/	-	8ee-X\L	.	4gg\	.	.	.	.	.	.
.	.	8cc\J	.	.	.	.	.	.	.	.
!	!	!LO:TX:t=P:problem:kreska pseudotaktowa	!	!LO:TX:t=P:problem:kreska pseudotaktowa	!	!	!	!	!	!
.	.	4ee-X\	.	4gg\	.	.	.	.	.	.
=143-	=143-	=143-	=143-	=143-	=143-	=143-	=143-	=143-	=143-	=143-
2C/]	-	4ee-X\	.	4gg\	.	.	.	1r	.	.
.	.	8dd\L	.	8ff\L	.	.	.	.	.	.
.	.	8cc\J	.	8ee-X\J	.	.	.	.	.	.
*	*	*custos:a	*	*	*	*	*	*	*	*
!LO:TX:t=P:problem:kreska pseudotaktowa	!	!LO:LB:g=original	!	!	!	!	!	!	!	!
2F\	.	8a/L	.	4.ff\	.	.	.	.	.	.
!	!	!LO:TX:a:t=P:problem:♮ below	!	!	!	!	!	!	!	!
!	!	!LO:N:acc=#	!	!	!	!	!	!	!	!
.	.	8bn/J	.	.	.	.	.	.	.	.
!	!	!LO:TX:t=P:problem:przekreślona synkopowana wartość	!	!	!	!	!	!	!	!
.	.	2cc\	.	.	.	.	.	.	.	.
!	!	!	!	!LO:TX:t=P:problem:kreska pseudotaktowa	!	!	!	!	!	!
.	.	.	.	8ee-\	.	.	.	.	.	.
=144-	=144-	=144-	=144-	=144-	=144-	=144-	=144-	=144-	=144-	=144-
4G\	.	.	.	4.dd\	.	.	.	2r	.	.
!	!	!LO:N:acc=#	!	!	!	!	!	!	!	!
4GG/	4	4bn/	.	.	.	.	.	.	.	.
.	3	.	.	8dd\	.	.	.	.	.	.
4.C/	-	2cc\	.	2ee-X\	.	.	.	4r	.	.
!	!	!	!	!	!	!	!	!LO:TX:t=P:problem:kreska pseudotaktowa	!	!
.	.	.	.	.	.	.	.	4g/	tǔ	tu
8BB-/	.	.	.	.	.	.	.	.	.	.
=145-	=145-	=145-	=145-	=145-	=145-	=145-	=145-	=145-	=145-	=145-
!	!	!LO:TX:b:t=11.:mod=	!	!LO:TX:a:t=11.:mod=	!	!	!	!	!	!
4AA/	.	00r	.	00r	2r	.	.	4.a\	fons	fons
4D/	7	.	.	.	.	.	.	.	.	.
.	.	.	.	.	.	.	.	8a\	tǔ	tu
4GG/	.	.	.	.	4r	.	.	8b-\	vi-	vi-
.	.	.	.	.	.	.	.	8g/	-ta	-ta
!	!	!	!	!	!LO:TX:t=P:problem:kreska pseudotaktowa	!	!	!	!	!
8G\L	.	.	.	.	4dd\	tǔ	tu	(8b-\L	tǔ	tu
!LO:TX:t=P:problem:kreska pseudotaktowa	!	!	!	!	!	!	!	!LO:TX:t=P:problem:kreska pseudotaktowa	!	!
8F\J	.	.	.	.	.	.	.	8a\J)	.	.
*	*	*	*	*	*custos:ee	*	*	*custos:g	*	*
!	!	!	!	!	!LO:LB:g=original	!	!	!LO:LB:g=original	!	!
=146-	=146-	=146-	=146-	=146-	=146-	=146-	=146-	=146-	=146-	=146-
4E\	.	.	.	.	4.ee\	fons	fons	4.g/	fons	fons
4A\	7	.	.	.	.	.	.	.	.	.
.	5	.	.	.	8ee\	tǔ	tu	8g/	tu	tu
2D/	.	.	.	.	8ff\	vi-	vi-	8a\	vi-	vi-
.	.	.	.	.	8dd\	-ta	-ta	8a\	-ta	-ta
!	!	!	!	!	!LO:TX:t=P:problem:kreska pseudotaktowa	!	!	!LO:TX:t=P:problem:kreska pseudotaktowa	!	!
.	.	.	.	.	4ff\	tǔ	tu	4dd\	tǔ	tu
=147-	=147-	=147-	=147-	=147-	=147-	=147-	=147-	=147-	=147-	=147-
4D/	.	.	.	.	4ff\	bo-	bo-	4dd\	bo-	bo-
4E-X\	.	.	.	.	8ee-X\	-ni-	-ni-	8cc\	-ni-	-ni-
.	.	.	.	.	8dd\	-tas	-tas	8b-\	-tas	-tas
2F\	.	.	.	.	(8cc\L	in-	in-	(8a\L	in-	in-
.	.	.	.	.	8b-\)	.	.	8g\)	.	.
.	.	.	.	.	(8cc\	-fi-	-fi-	(8a\	-fi-	-fi-
!	!	!	!	!	!LO:TX:t=P:problem:kreska pseudotaktowa	!	!	!LO:TX:t=P:problem:kreska pseudotaktowa	!	!
.	.	.	.	.	8dd\J)	.	.	8b-\J)	.	.
=148-	=148-	=148-	=148-	=148-	=148-	=148-	=148-	=148-	=148-	=148-
4C/	-	.	.	.	8ee-X\L	-ni-	-ni-	8cc\L	-ni-	-ni-
.	.	.	.	.	8ee-\	.	.	8cc\	.	.
4D/	.	.	.	.	8dd\	.	.	8b-\	.	.
.	.	.	.	.	8cc\J	.	.	8a\J	.	.
2E-X\	.	.	.	.	8b-\L	.	.	8g/L	.	.
!	!	!	!	!	!LO:TX:a:t=a:mod=	!	!	!	!	!
.	.	.	.	.	8a\	.	.	8fny/	.	.
.	.	.	.	.	8b-\	.	.	8g/	.	.
!	!	!	!	!	!LO:TX:t=P:problem:kreska pseudotaktowa	!	!	!LO:TX:t=P:problem:kreska pseudotaktowa	!	!
.	.	.	.	.	8cc\J	.	.	8a/J	.	.
=149-	=149-	=149-	=149-	=149-	=149-	=149-	=149-	=149-	=149-	=149-
4BB-/	.	00r	.	00r	8dd\L	.	.	8b-\L	.	.
.	.	.	.	.	8dd\	.	.	8b-\	.	.
4C/	.	.	.	.	8cc\	.	.	8a\	.	.
.	.	.	.	.	8b-\J	.	.	8g\J	.	.
4D/	#	.	.	.	8a\	.	.	8f#X/	.	.
!	!	!	!	!	!LO:SIC:v:s=8f#/	!	!	!	!	!
.	.	.	.	.	8g#X/	-ta	-ta	8d/	-ta	-ta
!	!	!	!	!	!LO:TX:t=P:problem:kreska pseudotaktowa	!	!	!LO:TX:t=P:problem:kreska pseudotaktowa	!	!
4BB-/	.	.	.	.	4dd\	tǔ	tu	4b-\	tǔ	tu
*	*	*	*	*	*	*	*	*custos:a	*	*
!	!	!	!	!	!	!	!	!LO:LB:g=original	!	!
=150-	=150-	=150-	=150-	=150-	=150-	=150-	=150-	=150-	=150-	=150-
2C/	.	.	.	.	4cc\	bo-	bo-	4a\	bo-	bo-
.	.	.	.	.	8cc\	-ni-	-ni-	8a\	-ni-	-ni-
.	.	.	.	.	8b-\	-tas	-tas	8g/	-tas	-tas
*	*	*	*	*	*custos:a	*	*	*	*	*
!LO:TX:t=P:problem:kreska pseudotaktowa	!	!	!	!	!LO:LB:g=original	!	!	!	!	!
2D/	5 3 #	.	.	.	8a\	in-	in-	8f#X/	in-	in-
.	6 4	.	.	.	8b-\	-fi-	-fi-	8g/	-fi-	-fi-
!	!	!	!	!	!LO:TX:t=P:problem:kreska pseudotaktowa	!	!	!	!	!
.	X 3	.	.	.	4a\	-ni-	-ni-	(8.g/L	-ni-	-ni-
!	!	!	!	!	!	!	!	!LO:TX:t=P:problem:kreska pseudotaktowa	!	!
.	.	.	.	.	.	.	.	16f#X/Jk)	.	.
=151-	=151-	=151-	=151-	=151-	=151-	=151-	=151-	=151-	=151-	=151-
!LO:TX:b:B:t=Adagio.:mod=	!	!	!	!	!LO:N:acc=#	!	!	!	!	!
[1G	#	.	.	.	4bn\	-ta	-ta	4g/	-ta	-ta
!	!	!	!	!	!LO:N:acc=#	!	!	!	!	!
!	!	!	!	!	!LO:SIC:s=2b	!	!	!	!	!
.	.	.	.	.	2bn\	Dǔl-	dul-	2dd\	dǔl-	dul-
!	!	!	!	!	!LO:TX:t=P:problem:kreska pseudotaktowa	!	!	!	!	!
!	!	!	!	!	!LO:N:acc=#	!	!	!LO:TX:t=P:problem:kreska pseudotaktowa	!	!
!	!	!	!	!	!LO:SIC:s=4b	!	!	!	!	!
.	.	.	.	.	4bn\	-cis	-cis	4dd\	-cis	-cis
=152-	=152-	=152-	=152-	=152-	=152-	=152-	=152-	=152-	=152-	=152-
!	!	!	!	!	!LO:N:acc=#	!	!	!	!	!
2G\]	.	.	.	.	4.bn\	a-	a-	4.dd\	a-	a-
.	.	.	.	.	8b\	-mor	-mor	8dd\	-mor	-mor
!LO:TX:t=P:problem:kreska pseudotaktowa	!	!	!	!	!	!	!	!	!	!
!	!	!	!	!	!	!	!	!LO:TX:t=P:problem:kreska pseudotaktowa	!	!
2C/	-	.	.	.	2cc\	Je-	Je-	2ee-X\	Je-	Je-
*custos:G	*	*	*	*	*	*	*	*	*	*
!LO:LB:g=original	!	!	!	!	!	!	!	!	!	!
=153-	=153-	=153-	=153-	=153-	=153-	=153-	=153-	=153-	=153-	=153-
!	!	!	!	!	!LO:N:acc=#	!	!	!	!	!
2GG/	.	0r	.	0r	2bn\	-ſǔ	-ſu,	2dd\	-sǔ,	-su,
!	!	!	!	!	!LO:TX:t=P:problem:kreska pseudotaktowa	!	!	!	!	!
2G\	7	.	.	.	2r	.	.	4r	.	.
.	.	.	.	.	.	.	.	8dd\	dǔl-	dul-
!	!	!	!	!	!	!	!	!LO:TX:t=P:problem:kreska pseudotaktowa	!	!
.	.	.	.	.	.	.	.	8ff\	-ce	-ce
=154-	=154-	=154-	=154-	=154-	=154-	=154-	=154-	=154-	=154-	=154-
2C/	-7	.	.	.	4r	.	.	8ee-X\	bo-	bo-
.	.	.	.	.	.	.	.	8ee-\	-nǔm	-num
.	.	.	.	.	8gny/	dul-	dul-	4r	.	.
!	!	!	!	!	!LO:TX:t=P:problem:-cis poprawione na -ce	!	!	!	!	!
.	.	.	.	.	8b-y\	-ce	-ce	.	.	.
*	*	*	*	*	*	*	*	*custos:cc	*	*
!	!	!	!	!	!	!	!	!LO:LB:g=original	!	!
4F\	.	.	.	.	8a\	bo-	bo-	4r	.	.
.	.	.	.	.	8a\	-num	-num	.	.	.
*	*	*	*	*	*	*ij	*ij	*	*	*
!LO:TX:t=P:problem:kreska pseudotaktowa	!	!	!	!	!	!	!	!	!	!
4FF/	.	.	.	.	8a\	dul-	dul-	8cc\	dǔl-	dul-
!	!	!	!	!	!LO:TX:t=P:problem:kreska pseudotaktowa	!	!	!LO:TX:t=P:problem:kreska pseudotaktowa	!	!
.	.	.	.	.	8a\	-ce	-ce	8cc\	-ce	-ce
=155-	=155-	=155-	=155-	=155-	=155-	=155-	=155-	=155-	=155-	=155-
4.GG/	9	1r	.	1r	8a\	bo-	bo-	8b-\	bo-	bo-
.	8	.	.	.	8g/	-num	-num	8b-\	-nǔm	-num
*	*	*	*	*	*	*Xij	*Xij	*	*ij	*ij
.	.	.	.	.	8g/	dǔl-	dul-	8b-\	dǔl-	dul-
8GG/	.	.	.	.	8g/	-ce	-ce	8b-\	-ce	-ce
*	*	*	*	*	*custos:g	*	*	*	*	*
!	!	!	!	!	!LO:LB:g=original	!	!	!	!	!
4AA/	.	.	.	.	8g/	bo-	bo-	8a\	bo-	bo-
.	.	.	.	.	8f/	-num	-num	8a\	-nǔm	-num
*	*	*	*	*	*	*	*	*	*Xij	*Xij
4BB-/	7	.	.	.	8r	.	.	8r	.	.
!	!	!	!	!	!LO:TX:t=P:problem:kreska pseudotaktowa	!	!	!	!	!
.	6	.	.	.	8f/	di-	di-	8dd\	di-	di-
=156-	=156-	=156-	=156-	=156-	=156-	=156-	=156-	=156-	=156-	=156-
2C/	4	2r	.	2r	4.f/	-lec-	-lec-	4.g/	-lec-	-lec-
.	3	.	.	.	8e/	-te	-te	8a\	-te	-te
!LO:TX:t=P:problem:kreska pseudotaktowa	!	!	!	!	!	!	!	!	!	!
2FF/	.	4r	.	4r	4f/	mi.	mi.	4fny/	mi	mi
!	!	!	!	!	!	!	!	!LO:MO:mod=4r	!	!
.	.	8aa\L	.	8ccc\L	4r	.	.	1r	.	.
!	!	!LO:TX:t=P:problem:kreska pseudotaktowa	!	!LO:TX:t=P:problem:kreska pseudotaktowa	!	!	!	!	!	!
.	.	8aa\J	.	8ccc\J	.	.	.	.	.	.
=157-	=157-	=157-	=157-	=157-	=157-	=157-	=157-	=157-	=157-	=157-
!	!	!	!	!	!	!	!	!LO:MO:null:mod=1r	!	!
4.GG/	9	8aa\L	.	8bb-X\L	1r	.	.	.	.	.
.	8	8gg\	.	8bb-\	.	.	.	.	.	.
.	.	8gg\	.	8bb-\	.	.	.	.	.	.
8GG/	.	8gg\J	.	8bb-\J	.	.	.	.	.	.
4AA/	9	8gg\L	.	8aa\L	.	.	.	.	.	.
.	8	8ff\J	.	8aa\J	.	.	.	.	.	.
!	!	!	!	!	!	!	!	!LO:MO:null:mod=.	!	!
4BB-/	.	8r	.	8r	.	.	.	2r	.	.
!	!	!LO:TX:t=P:problem:kreska pseudotaktowa	!	!LO:TX:t=P:problem:kreska pseudotaktowa	!	!	!	!	!	!
.	.	8ff\	.	8aa\	.	.	.	.	.	.
!	!	!	!	!LO:LB:g=original	!	!	!	!	!	!
=158-	=158-	=158-	=158-	=158-	=158-	=158-	=158-	=158-	=158-	=158-
!	!	!	!	!	!	!	!	!LO:MO:null:mod=2r	!	!
2C/	4	4.ff\	.	4.gg\	2r	.	.	.	.	.
!	!	!	!	!	!	!	!	!LO:MO:null:mod=.	!	!
.	3	.	.	.	.	.	.	4r	.	.
.	.	8ee\	.	8gg\	.	.	.	.	.	.
!LO:TX:t=P:problem:kreska pseudotaktowa	!	!	!	!	!	!	!	!LO:TX:t=P:problem:brak pauzy	!	!
2FF/	.	4ff\	.	4ff\	4r	.	.	4ryy	.	.
!	!	!LO:TX:t=P:problem:kreska pseudotaktowa	!	!LO:TX:t=P:problem:kreska pseudotaktowa	!	!	!	!	!	!
.	.	4r	.	4r	8a\	dǔl-	dul-	8cc\	dǔl-	dul-
!	!	!	!	!	!LO:TX:t=P:problem:kreska pseudotaktowa	!	!	!LO:TX:t=P:problem:kreska pseudotaktowa	!	!
.	.	.	.	.	8b-\	-cis	-cis	8dd\	-cis	-cis
=159-	=159-	=159-	=159-	=159-	=159-	=159-	=159-	=159-	=159-	=159-
2C/	-	4r	.	4r	8cc\	a-	a-	8ee-X\	a-	a-
.	.	.	.	.	8cc\	-mor	-mor	8ee-\	-mor	-mor
.	.	8ee-X\L	.	8gg\L	4r	.	.	4r	.	.
.	.	8ff\J	.	8aa\J	.	.	.	.	.	.
*	*	*	*	*	*	*	*	*custos:dd	*	*
!	!	!	!	!	!	!	!	!LO:LB:g=original	!	!
2GG/	.	8gg\L	.	8bb-X\L	4r	.	.	4r	.	.
.	.	8gg\J	.	8bb-\J	.	.	.	.	.	.
!	!	!	!	!LO:TX:t=P:problem:kreska pseudotaktowa	!	!	!	!	!	!
.	.	4r	.	4r	8b-\	a-	a-	8dd\	a-	a-
!	!	!	!	!	!LO:TX:t=P:problem:kreska pseudotaktowa	!	!	!LO:TX:t=P:problem:kreska pseudotaktowa	!	!
.	.	.	.	.	8cc\	-mor	-mor	8ee-X\	-mor	-mor
=160-	=160-	=160-	=160-	=160-	=160-	=160-	=160-	=160-	=160-	=160-
2D/	.	0r	.	0r	8dd\	Je-	Je-	8ff\	Je-	Je-
.	.	.	.	.	8dd\	-ſǔ	-ſu,	8ff\	-ſǔ,	-ſu,
.	.	.	.	.	8dd\	dǔl-	dul-	8ff\	dǔl-	dul-
.	.	.	.	.	8dd\	-ce	-ce	8ff\	-ce	-ce
4E-X\	.	.	.	.	8dd\	bo-	bo-	8ee-X\	bo-	bo-
.	.	.	.	.	8cc\	-num	-num	8ee-\	-num	-num
*	*	*	*	*	*	*	*	*	*ij	*ij
4F\	7	.	.	.	8cc\	dǔl-	dul-	8ee-\	dǔl-	dul-
!	!	!	!	!	!	!	!	!LO:TX:t=P:problem:kreska pseudotaktowa	!	!
.	6	.	.	.	8cc\	-ce	-ce	8ee-\	-ce	-ce
!	!	!	!	!	!LO:LB:g=original	!	!	!	!	!
=161-	=161-	=161-	=161-	=161-	=161-	=161-	=161-	=161-	=161-	=161-
4G\	4	.	.	.	8cc\	bo-	bo-	8dd\	bo-	bo-
.	3	.	.	.	8b-\	-num	-num	8dd\	-num	-num
*	*	*	*	*	*	*	*	*	*Xij	*Xij
4E-X\	4	.	.	.	8r	.	.	8r	.	.
.	3	.	.	.	8b-\	di-	di-	8dd\	di-	di-
!LO:TX:t=P:problem:kreska pseudotaktowa	!	!	!	!	!	!	!	!	!	!
2F\	.	.	.	.	4.b-\	-lec-	-lec-	4.cc\	-lec-	-lec-
.	.	.	.	.	8a\	-te	-te	8dd\	-te	-te
=162-	=162-	=162-	=162-	=162-	=162-	=162-	=162-	=162-	=162-	=162-
4.BB-/	.	4r	.	4r	4b-\	mi	mi	4b-\	mi	mi
.	.	8dd\L	.	8ff\L	4r	.	.	4r	.	.
8D/	.	8dd\J	.	8ff\J	.	.	.	.	.	.
4E-X\	7	8dd\L	.	8ee-X\L	2r	.	.	2r	.	.
.	5	8cc\	.	8ee-\	.	.	.	.	.	.
!LO:TX:t=P:problem:kreska pseudotaktowa	!	!	!	!	!	!	!	!	!	!
4F\	.	8cc\	.	8ee-\	.	.	.	.	.	.
!	!	!LO:TX:t=P:problem:kreska pseudotaktowa	!	!LO:TX:t=P:problem:kreska pseudotaktowa	!	!	!	!	!	!
.	.	8cc\J	.	8ee-\J	.	.	.	.	.	.
*custos:G	*	*	*	*	*	*	*	*	*	*
!LO:LB:g=original	!	!	!	!	!	!	!	!	!	!
=163-	=163-	=163-	=163-	=163-	=163-	=163-	=163-	=163-	=163-	=163-
4G\	4	8cc\L	.	8dd\L	1r	.	.	1r	.	.
.	3	8b-y\J	.	8dd\J	.	.	.	.	.	.
4E-X\	7	8r	.	8r	.	.	.	.	.	.
.	5	8b-/	.	8dd\	.	.	.	.	.	.
!LO:TX:t=P:problem:kreska pseudotaktowa	!	!	!	!	!	!	!	!	!	!
2F\	.	4.b-/	.	4.cc\	.	.	.	.	.	.
!	!	!LO:TX:t=P:problem:kreska pseudotaktowa	!	!LO:TX:t=P:problem:kreska pseudotaktowa	!	!	!	!	!	!
.	.	8a/	.	8cc\	.	.	.	.	.	.
*	*	*	*	*	*	*	*	*custos:cc	*	*
!	!	!	!	!	!	!	!	!LO:LB:g=original	!	!
=164-	=164-	=164-	=164-	=164-	=164-	=164-	=164-	=164-	=164-	=164-
2BB-/	.	4b-/	.	4dd\	2r	.	.	2r	.	.
.	.	8dd\L	.	8ff\L	.	.	.	.	.	.
.	.	8eeny\J	.	8gg\J	.	.	.	.	.	.
2FF/	.	8ff\L	.	8aa\L	4r	.	.	4r	.	.
.	.	8ee\J	.	8gg\J	.	.	.	.	.	.
.	.	16ff\LL	.	16aa\LL	8a\	dǔl-	dul-	8cc\	dul-	dul-
.	.	16ee\	.	16gg\	.	.	.	.	.	.
!	!	!	!	!	!LO:TX:t=P:problem:kreska pseudotaktowa	!	!	!	!	!
.	.	16dd\	.	16ff\	8b-\	-ce	-ce	8dd\	-ce	-ce
!	!	!LO:TX:t=P:problem:kreska pseudotaktowa	!	!LO:TX:t=P:problem:kreska pseudotaktowa	!	!	!	!	!	!
.	.	16ff\JJ	.	16aa\JJ	.	.	.	.	.	.
=165-	=165-	=165-	=165-	=165-	=165-	=165-	=165-	=165-	=165-	=165-
2C/	-	4ee-X\	.	4.gg\	8cc\L	bo-	bo-	8ee-X\L	bo-	bo-
.	.	.	.	.	8b-\J	.	.	8dd\J	.	.
.	.	8g/L	.	.	16cc\LL	.	.	16ee-\LL	.	.
.	.	.	.	.	16b-\	.	.	16dd\	.	.
.	.	8a/J	.	8gg\	16a\	.	.	16cc\	.	.
.	.	.	.	.	16cc\JJ	.	.	16ee-X\JJ	.	.
!	!	!LO:TX:t=P:problem:kreska pseudotaktowa	!	!	!	!	!	!	!	!
2GG/	.	2b-/	.	4.gg\	8b-\	.	.	8dd\	.	.
.	.	.	.	.	8b-\	-num	-num,	8dd\	-nǔm,	-num,
.	.	.	.	.	8b-\	dul-	dul-	8dd\	dǔl-	dul-
!	!	!	!	!LO:TX:t=P:problem:kreska pseudotaktowa	!LO:TX:t=P:problem:kreska pseudotaktowa	!	!	!	!	!
.	.	.	.	8ff\	8b-\	-ce	-ce	8dd\	-ce	-ce
=166-	=166-	=166-	=166-	=166-	=166-	=166-	=166-	=166-	=166-	=166-
2AA/	9	4.cc\	.	2eeny\	4b-\	bo-	bo-	4.cc\	bo-	bo-
.	8	.	.	.	4a\	-nǔm	-num	.	.	.
.	.	8a/	.	.	.	.	.	8cc\	-num	-num
*	*	*	*	*	*	*	*	*	*ij	*ij
!	!	!LO:TX:t=P:problem:kreska pseudotaktowa	!	!	!	!	!	!	!	!
4.BB-/	7	[2dd\	.	4r	4a\	dǔl-	dul-	4.b-\	dǔl-	dul-
!	!	!	!	!LO:TX:t=P:problem:kreska pseudotaktowa	!LO:TX:t=P:problem:kreska pseudotaktowa	!	!	!	!	!
.	6	.	.	4bb-X\	4g\	-ce	-ce	.	.	.
8C/	.	.	.	.	.	.	.	8b-\	-ce	-ce
*	*	*custos:dd	*	*	*custos:f	*	*	*	*	*
!	!	!LO:LB:g=original	!	!	!LO:LB:g=original	!	!	!	!	!
=167-	=167-	=167-	=167-	=167-	=167-	=167-	=167-	=167-	=167-	=167-
2D/	#	4dd\]	.	8ff#X\L	2f#X/	bo-	bo-	2a\	bo-	bo-
.	.	.	.	8gg\J	.	.	.	.	.	.
.	.	4dd\	.	4aa\	.	.	.	.	.	.
!	!	!LO:TX:t=P:problem:kreska pseudotaktowa	!	!LO:TX:t=P:problem:kreska pseudotaktowa	!	!	!	!	!	!
2GG/	.	2dd\	.	2gg\	4.g/	-num	-num	4.b-\	-num	-num
*	*	*	*	*	*	*	*	*	*Xij	*Xij
!	!	!	!	!	!LO:TX:t=P:problem:kreska pseudotaktowa	!	!	!	!	!
.	.	.	.	.	8g/	di-	di-	8a\	di-	di-
=168-	=168-	=168-	=168-	=168-	=168-	=168-	=168-	=168-	=168-	=168-
1D	# 3	2.dd\	.	2.aa\	(4f#X/	-lec-	-lec-	2.a\	-lec-	-lec-
!	!	!	!	!	!LO:SIC:s=2g)	!	!	!	!	!
.	X 4	.	.	.	2g/	.	.	.	.	.
.	X 3	4dd\	.	4aa\	4f#X/)	-te	-te	4a\	-te	-te
=169-	=169-	=169-	=169-	=169-	=169-	=169-	=169-	=169-	=169-	=169-
!	!	!LO:TX:t=f:mod=	!	!	!	!	!	!LO:N:acc=#	!	!
!LO:SIC:s=1GG;l	!	!LO:SIC:s=1dd;l	!	!LO:SIC:s=1gg;l	!LO:SIC:s=1g;l	!	!	!LO:SIC:s=1b;l	!	!
1GG;;l	.	1dd;;l	.	1gg;;l	1g;;l	mi.	mi.	1bn;;l	mi.	mi.
==	==	==	==	==	==	==	==	==	==	==
*-	*-	*-	*-	*-	*-	*-	*-	*-	*-	*-
!!!system-decoration: [(g1)][(g2)]g3
!!!RDF**kern: > = above
!!!RDF**kern: < = below
!!!RDF**kern: l = terminal long
!!!filter-modern: sic -sq | shed -e "s/TX(.*):t=P:/tx$1:t=P:/LG" | shed -k -e "s/-X/-/g" | shed -k -e "s/#X/#/g" | shed -k -e "s/nX//g" | shed -ke "s/\[y(?!y)/[/g" | shed -e "s/yy//" | shed -k -e "s/LO:N:acc/LO:n:acc:/L" | shed -k -e "s/LO:N:vis/LO:n:vis:/L" | shed -e "s/:rj/:RJ/L" | shed -e "s/^custos:/Xcustos:/I" | shed -e "s/LO:DY:(a|b|rj)/LO:dy:$1/L" | shed -e "s/-//B" | modori -m | tie -s | autostem -r | humtr -p
!!!ENC: Katarzyna Serwa
!!!END: 2022-02-18
!!!EED: Berenika Jozajtis
!!!EEV: 2022-01-28
!!!ENC-modern: Andrzej Borzym
!!!END-modern: 2022-11-10
